!!!!SEGMENT: pl-cz--iii-679--013_volckmer-augustin--missa-in-d-agnus-dei.krn
!!!cenid: 17xx:1185
!!!COM: Volckmer, Augustin
!!!COM-rismID: pe30020656
!!!CDT: 1755-~1820
!!!CNT:
!!!OPR: Missa in D
!!!OTL: Agnus Dei
!!!OMV: 013
!!!PDT:
!!!AGN: Sacred; Mass
!!!SMS-siglum: PL-CZ
!!!SMS-shelfmark: III-679
!!!SMS-shelfwork: 001-013 M
!!!SMS-variant:
!!!SMS-altvar:
!!!NIFC-rismSourceID: 300001394
!!!NIFC-rismChildID: 300001394
!!!NIFC-islandoraID: pl-cz:40002
!!!URL-pdf-islandora: https://repozytorium.nifc.pl/islandora/object/pl-cz%3A40002/datastream/PDF/view
!!!URL-scan:
!!!ONB-nifc: UWAGA: części Mszy: Sinfonia, Kyrie, Gloria, Domine Deus, Cum Sancto Spiritu, In gloria Dei Patris, Credo, Et incarnatus, Et resurrexit, Sanctus, Pleni Sunt, Benedictus, Agnus Dei, Dona nobis
!!!AIN: 1 alto 1 bass 2 clrno 2 cor 2 fagot 1 flt 2 oboe 1 organ 1 soprn 1 tenor 1 timpa 2 viola 2 violn
!!!key: D
**kern	**fba	**dynam	**kern	**dynam	**kern	**dynam	**kern	**dynam	**kern	**dynam	**kern	**text	**dynam	**kern	**text	**dynam	**kern	**text	**dynam	**kern	**text	**dynam	**kern	**kern	**dynam	**kern	**dynam	**kern	**dynam	**kern	**dynam	**kern	**dynam	**kern	**dynam	**kern	**dynam	**kern	**dynam	**kern	**dynam
*	*	*	*group4	*	*group4	*	*group4	*	*group4	*	*group3	*	*	*group3	*	*	*group3	*	*	*group3	*	*	*group	*group2	*	*group2	*	*group2	*	*group2	*	*group1	*	*group1	*	*group1	*	*group1	*	*group1	*
*part19	*part19	*part19	*part18	*part18	*part17	*part17	*part16	*part16	*part15	*part15	*part14	*part14	*part14	*part13	*part13	*part13	*part12	*part12	*part12	*part11	*part11	*part11	*part10	*part9	*part9	*part8	*part8	*part7	*part7	*part6	*part6	*part5	*part5	*part4	*part4	*part3	*part3	*part2	*part2	*part1	*part1
*staff19	*	*	*staff18	*	*staff17	*	*staff16	*	*staff15	*	*staff14	*staff14	*	*staff13	*staff13	*	*staff12	*staff12	*	*staff11	*staff11	*	*staff10	*staff9	*	*staff8	*	*staff7	*	*staff6	*	*staff5	*	*staff4	*	*staff3	*	*staff2	*	*staff1	*
*IGcont	*	*	*IGacmp	*	*IGacmp	*	*IGacmp	*	*IGacmp	*	*IGcoro	*	*	*IGcoro	*	*	*IGcoro	*	*	*IGcoro	*	*	*IGacmp	*IGacmp	*	*IGacmp	*	*IGacmp	*	*IGacmp	*	*IGacmp	*	*IGacmp	*	*IGacmp	*	*IGacmp	*	*IGacmp	*
*ICklav	*	*	*ICstr	*	*ICstr	*	*ICstr	*	*ICstr	*	*ICvox	*	*	*ICvox	*	*	*ICvox	*	*	*ICvox	*	*	*ICidio	*ICbras	*	*ICbras	*	*ICbras	*	*ICbras	*	*ICww	*	*ICww	*	*ICww	*	*ICww	*	*ICww	*
*Iorgan	*	*	*Iviola	*	*Iviola	*	*Ivioln	*	*Ivioln	*	*Ibass	*	*	*Itenor	*	*	*Ialto	*	*	*Isoprn	*	*	*Itimpa	*Iclrno	*	*Iclrno	*	*Icor	*	*Icor	*	*Ifagot	*	*Ifagot	*	*Ioboe	*	*Ioboe	*	*Iflt	*
*I"Organo. v Violone	*	*	*I"Viola. Secundo.	*	*I"Viola Primo.	*	*I"Violino Secundo	*	*I"Violino. Primo.	*	*I"Baſso.	*	*	*I"Tenore.	*	*	*I"Alto.	*	*	*I"Canto.	*	*	*I"Timpano	*I"Clarino Secundo	*	*I"Clarino Primo	*	*I"Corno Secundo.	*	*I"Corno Primo:	*	*I"Fagotho Secundo.	*	*I"Fagotho Primo.	*	*I"Hautbois Secundo.	*	*I"Hautbois Primo.	*	*I"Flauto.	*
*I'org vel vlne	*	*	*I'vla 2	*	*I'vla 1	*	*I'vl 2	*	*I'vl 1	*	*I'B	*	*	*I'T	*	*	*I'A	*	*	*I'S	*	*	*I'timp	*I'clno 2 in D	*	*I'clno 1 in D	*	*I'cor 2 in D	*	*I'cor 1	*	*I'fag 2	*	*I'fag 1	*	*I'ob 2	*	*I'ob 1	*	*I'fl	*
*clefF4	*	*	*clefC3	*	*clefC3	*	*clefG2	*	*clefG2	*	*clefF4	*	*	*clefC4	*	*	*clefC3	*	*	*clefC1	*	*	*clefF4	*clefG2	*	*clefG2	*	*clefG2	*	*clefG2	*	*clefF4	*	*clefF4	*	*clefG2	*	*clefG2	*	*clefG2	*
*	*	*	*	*	*	*	*	*	*	*	*	*	*	*	*	*	*	*	*	*	*	*	*	*ITrd-1c-2	*	*ITrd-1c-2	*	*ITrd-1c-2	*	*ITrd-1c-2	*	*	*	*	*	*	*	*	*	*	*
*k[f#c#]	*	*	*k[f#c#]	*	*k[f#c#]	*	*k[f#c#]	*	*k[f#c#]	*	*k[f#c#]	*	*	*k[f#c#]	*	*	*k[f#c#]	*	*	*k[f#c#]	*	*	*k[f#c#]	*k[f#c#]	*	*k[f#c#]	*	*k[f#c#]	*	*k[f#c#]	*	*k[f#c#]	*	*k[f#c#]	*	*k[f#c#]	*	*k[f#c#]	*	*k[f#c#]	*
*D:	*	*	*D:	*	*D:	*	*D:	*	*D:	*	*D:	*	*	*D:	*	*	*D:	*	*	*D:	*	*	*D:	*D:	*	*D:	*	*D:	*	*D:	*	*D:	*	*D:	*	*D:	*	*D:	*	*D:	*
*M3/2	*	*	*M3/2	*	*M3/2	*	*M3/2	*	*M3/2	*	*M3/2	*	*	*M3/2	*	*	*M3/2	*	*	*M3/2	*	*	*M3/2	*M3/2	*	*M3/2	*	*M3/2	*	*M3/2	*	*M3/2	*	*M3/2	*	*M3/2	*	*M3/2	*	*M3/2	*
*2\right	*	*	*2\right	*	*2\right	*	*2\right	*	*2\right	*	*2\right	*	*	*2\right	*	*	*2\right	*	*	*2\right	*	*	*2\right	*2\right	*	*2\right	*	*2\right	*	*2\right	*	*2\right	*	*2\right	*	*2\right	*	*2\right	*	*2\right	*
*	*	*below	*all\right	*below	*all\right	*below	*	*below	*	*below	*all\right	*	*below	*	*	*below	*	*	*below	*all\right	*	*below	*	*	*below	*	*below	*	*below	*	*below	*	*below	*	*below	*all\right	*below	*all\right	*below	*	*
=1	=1	=1	=1	=1	=1	=1	=1	=1	=1	=1	=1	=1	=1	=1	=1	=1	=1	=1	=1	=1	=1	=1	=1	=1	=1	=1	=1	=1	=1	=1	=1	=1	=1	=1	=1	=1	=1	=1	=1	=1	=1
!	!	!	!	!	!	!	!	!	!	!	!	!	!	!LO:TX:t=NB&colon;:rj:B	!	!	!	!	!	!	!	!	!	!	!	!	!	!	!	!	!	!	!	!	!	!	!	!	!	!	!
!LO:TX:a:t=Lento:rj	!	!	!	!	!	!	!LO:TX:t=NB	!	!LO:TX:t=NB:rj	!	!LO:TX:t=NB&colon;	!	!	!LO:TX:a:t=Dolce.	!	!	!LO:TX:a:t=Lento.	!	!	!LO:TX:a:t=Largo	!	!	!LO:TX:a:t=39	!LO:TX:a:t=Lente	!	!LO:TX:a:t=39	!	!LO:TX:a:t=Lente	!	!	!	!	!	!	!	!LO:TX:a:t=7.	!	!LO:TX:a:t=7.	!	!LO:TX:a:t=6	!
!LO:TX:b:t=Solo:rj	!	!	!LO:TX:a:t=Lento	!	!LO:TX:a:t=Lento	!	!LO:TX:a:t=Lento.:B	!	!LO:TX:a:t=Lento	!	!LO:TX:a:t=Lento.	!	!	!LO:TX:a:t=Lento.:B	!	!	!LO:TX:a:t=7.	!	!	!LO:TX:a:t=7.	!	!	!LO:TX:b:t=Lente	!LO:TX:a:t=39:rj	!	!LO:TX:a:t=Lente:rj	!	!LO:TX:a:t=in D:rj	!	!LO:TX:a:t=in D:rj	!	!LO:TX:a:t=Lento:rj	!LO:DY:a:t=Piano	!LO:TX:a:t=Lento	!	!LO:TX:a:t=Lente	!	!LO:TX:a:t=Lento.	!	!LO:TX:a:t=Lento	!
!	!	!	!	!LO:DY:t=p&colon;	!	!	!	!LO:DY:t=pia&colon;	!	!LO:DY:t=pia&colon;	!	!	!	!LO:TX:t=P:problem:all\left or right	!	!	!	!	!	!	!	!	!	!	!	!	!	!	!LO:DY:t=pia	!LO:TX:a:t=Lento:rj	!LO:DY:t=piano	!	!	!	!LO:DY:t=Piano	!	!	!	!	!	!
2D\	x #	.	1d	p	2D/	.	1f#	p	1a	p	1F#	A-	.	1A	A-	.	00.r	.	.	00.r	.	.	1.r	1.r	.	1.r	.	1f#	p	1dd	p	2D\	p	2D\	p	00.r	.	00.r	.	00.r	.
2F#\	.	.	.	.	2F#/	.	.	.	.	.	.	.	.	.	.	.	.	.	.	.	.	.	.	.	.	.	.	.	.	.	.	2F#\	.	2F#\	.	.	.	.	.	.	.
!	!	!	!	!	!	!	!	!	!	!	!	!	!	!	!	!	!	!	!	!	!	!	!	!	!	!	!	!	!	!	!	!	!	!	!	!	!	!	!	!	!
2A\	7 3	.	2c#\	.	2A/	.	2e/	.	2g/	.	2E\	-gnus	.	2G/	-gnus	.	.	.	.	.	.	.	.	.	.	.	.	2a/	.	2ee\	.	2A\	.	2A\	.	.	.	.	.	.	.
=2	=2	=2	=2	=2	=2	=2	=2	=2	=2	=2	=2	=2	=2	=2	=2	=2	=2	=2	=2	=2	=2	=2	=2	=2	=2	=2	=2	=2	=2	=2	=2	=2	=2	=2	=2	=2	=2	=2	=2	=2	=2
!	!	!	!	!	!	!	!	!	!	!	!	!	!	!	!	!	!	!	!	!	!	!	!	!	!	!	!	!	!	!	!	!	!	!	!	!	!	!	!	!	!
2d\	x 4	.	2A/	.	2d\	.	2e/	.	2g/	.	2E\	de-	.	2G/	De-	.	.	.	.	.	.	.	1.r	1.r	.	1.r	.	2a/	.	2ee\	.	2D\	.	2d\	.	.	.	.	.	.	.
.	x 3	.	.	.	.	.	.	.	.	.	.	.	.	.	.	.	.	.	.	.	.	.	.	.	.	.	.	.	.	.	.	.	.	.	.	.	.	.	.	.	.
!	!	!	!	!	!	!	!	!	!	!	!LO:TX:a:t=dolce	!	!	!	!	!	!	!	!	!	!	!	!	!	!	!	!	!	!	!	!	!	!	!	!	!	!	!	!	!	!
2D\	.	.	2A/	.	2D/	.	2d/	.	2f#/	.	2D\	-i	.	2F#/	-i	.	.	.	.	.	.	.	.	.	.	.	.	2dd\	.	2ff#\	.	2DD/	.	2D\	.	.	.	.	.	.	.
2r	.	.	2r	.	2r	.	(4b\	.	(4dd\	.	(4B\	qui	.	(4d\	qui	.	.	.	.	.	.	.	.	.	.	.	.	2r	.	2r	.	2r	.	2r	.	.	.	.	.	.	.
.	.	.	.	.	.	.	4a\)	.	4cc#\)	.	4A\)	.	.	4c#\)	.	.	.	.	.	.	.	.	.	.	.	.	.	.	.	.	.	.	.	.	.	.	.	.	.	.	.
=3	=3	=3	=3	=3	=3	=3	=3	=3	=3	=3	=3	=3	=3	=3	=3	=3	=3	=3	=3	=3	=3	=3	=3	=3	=3	=3	=3	=3	=3	=3	=3	=3	=3	=3	=3	=3	=3	=3	=3	=3	=3
!LO:LB:g=original	!	!	!	!	!	!	!	!	!	!	!	!	!	!	!	!	!	!	!	!	!	!	!	!	!	!	!	!	!	!	!	!	!	!	!	!	!	!	!	!	!
2G\	x 3	.	2G/	.	2d\|>	.	2g/	.	2b\|>	.	2G\	tol-	.	2B\	tol-	.	.	.	.	.	.	.	1.r	1.r	.	1.r	.	2d/	.	2dd\	.	2G\	.	2G\	.	.	.	.	.	.	.
2D\	5 3	.	2D/	.	2d\|>	.	2f#/	.	2a\|>	.	2F#\	-lis	.	2A\	-lis	.	.	.	.	.	.	.	.	.	.	.	.	2d/	.	2dd\	.	2D\	.	2D\	.	.	.	.	.	.	.
2r	.	.	2r	.	2r	.	(4b\	.	(4dd\	.	(4B\	pec-	.	(4d\	pec-	.	.	.	.	.	.	.	.	.	.	.	.	2r	.	2r	.	2r	.	2r	.	.	.	.	.	.	.
.	.	.	.	.	.	.	4a\)	.	4cc#\)	.	4A\)	.	.	4c#\)	.	.	.	.	.	.	.	.	.	.	.	.	.	.	.	.	.	.	.	.	.	.	.	.	.	.	.
=4	=4	=4	=4	=4	=4	=4	=4	=4	=4	=4	=4	=4	=4	=4	=4	=4	=4	=4	=4	=4	=4	=4	=4	=4	=4	=4	=4	=4	=4	=4	=4	=4	=4	=4	=4	=4	=4	=4	=4	=4	=4
!	!	!	!	!	!	!	!	!	!	!	!	!	!	!	!	!	!	!	!	!	!	!	!	!	!	!	!	!	!	!	!	!	!	!LO:LB:g=original	!	!	!	!	!	!	!
2G\	x 3	.	2G/	.	2d\	.	2g/	.	2b\	.	2G\	-ca-	.	2B\	-ca-	.	.	.	.	.	.	.	1.r	1.r	.	1.r	.	2d/	.	2dd\	.	2G\	.	2G\	.	.	.	.	.	.	.
4D\	x #	.	4D/	.	4d\|>	.	2f#/	.	2a\	.	2F#\	-ta	.	2A\	-ta	.	.	.	.	.	.	.	.	.	.	.	.	2d/	.	2dd\	.	2D\	.	2D\	.	.	.	.	.	.	.
4A\|>	.	.	4A/	.	4a\|>	.	.	.	.	.	.	.	.	.	.	.	.	.	.	.	.	.	.	.	.	.	.	.	.	.	.	.	.	.	.	.	.	.	.	.	.
4F#\|>	.	.	4F#/	.	4f#\|>	.	2r	.	2r	.	2r	.	.	2r	.	.	.	.	.	.	.	.	.	.	.	.	.	2r	.	2r	.	2r	.	2r	.	.	.	.	.	.	.
4D\|>	.	.	4D/	.	4d\|>	.	.	.	.	.	.	.	.	.	.	.	.	.	.	.	.	.	.	.	.	.	.	.	.	.	.	.	.	.	.	.	.	.	.	.	.
=5	=5	=5	=5	=5	=5	=5	=5	=5	=5	=5	=5	=5	=5	=5	=5	=5	=5	=5	=5	=5	=5	=5	=5	=5	=5	=5	=5	=5	=5	=5	=5	=5	=5	=5	=5	=5	=5	=5	=5	=5	=5
2C#/	.	.	2A/	.	2A/	.	2e/	.	2g/	.	2E\	pec-	.	2G/	pec-	.	0.r	.	.	0.r	.	.	1.r	1.r	.	1.r	.	1a	.	1ee	.	2C#/	.	2C#/	.	0.r	.	0.r	.	0.r	.
2AA/	.	.	2c#\	.	2c#/	.	2g/	.	(4ee\	.	2G\	-ca-	.	(4e\	-ca-	.	.	.	.	.	.	.	.	.	.	.	.	.	.	.	.	2AA/	.	2BB/	.	.	.	.	.	.	.
.	.	.	.	.	.	.	.	.	4cc#\)	.	.	.	.	4c#\)	.	.	.	.	.	.	.	.	.	.	.	.	.	.	.	.	.	.	.	.	.	.	.	.	.	.	.
4D\	.	.	2d\	.	2d\	.	4f#/	.	4dd\|>	.	(4F#\	-ta	.	4d\	-ta	.	.	.	.	.	.	.	.	.	.	.	.	2dd\	.	2ff#\	.	4D\	.	4D\	.	.	.	.	.	.	.
!	!	!	!	!	!	!	!	!	!	!	!	!	!	!	!	!	!	!	!	!	!	!	!	!	!	!	!	!	!	!	!	!	!	!LO:SIC:v:s=4G\	!	!	!	!	!	!	!
4G\	.	.	.	.	.	.	4g/	.	4b\|>	.	4G\)	.	.	4B\	.	.	.	.	.	.	.	.	.	.	.	.	.	.	.	.	.	8F#\L	.	4F#\	.	.	.	.	.	.	.
.	.	.	.	.	.	.	.	.	.	.	.	.	.	.	.	.	.	.	.	.	.	.	.	.	.	.	.	.	.	.	.	8G\J	.	.	.	.	.	.	.	.	.
=6	=6	=6	=6	=6	=6	=6	=6	=6	=6	=6	=6	=6	=6	=6	=6	=6	=6	=6	=6	=6	=6	=6	=6	=6	=6	=6	=6	=6	=6	=6	=6	=6	=6	=6	=6	=6	=6	=6	=6	=6	=6
2A\	.	.	1A	.	2a\	.	2f#/	.	2a/	.	2F#\	pec-	.	2A/	mun-	.	.	.	.	.	.	.	1.r	1.r	.	1.r	.	2d/	.	2dd\	.	2A\	.	2A\	.	.	.	.	.	.	.
2AA/	.	.	.	.	2A/	.	2e/	.	2g/	.	2E\	-ca-	.	2G/	-di	.	.	.	.	.	.	.	.	.	.	.	.	2a/	.	2ee\	.	2AA/	.	2AA/	.	.	.	.	.	.	.
2D\	.	.	2d\	.	2d\	.	4.d/	.	4.f#/	.	4.D/	-ta	.	(4.F#/	mun-	.	.	.	.	.	.	.	.	.	.	.	.	4.dd\	.	4.ff#\	.	2D\	.	2D\	.	.	.	.	.	.	.
.	.	.	.	.	.	.	8e/	.	8g/	.	8E/	.	.	8G/)	.	.	.	.	.	.	.	.	.	.	.	.	.	8ee\	.	8gg\	.	.	.	.	.	.	.	.	.	.	.
=7	=7	=7	=7	=7	=7	=7	=7	=7	=7	=7	=7	=7	=7	=7	=7	=7	=7	=7	=7	=7	=7	=7	=7	=7	=7	=7	=7	=7	=7	=7	=7	=7	=7	=7	=7	=7	=7	=7	=7	=7	=7
!	!	!	!	!	!	!	!	!	!	!	!LO:LB:g=original	!	!	!	!	!	!	!	!	!	!	!	!	!	!	!	!	!	!	!	!	!	!	!	!	!	!	!	!	!	!
2A\	x 4	.	2A/	.	2A/	.	2d/	.	(2f#/	.	2D/	mun-	.	2F#/	.	.	1.r	.	.	1.r	.	.	1.r	1.r	.	1.r	.	2dd\	.	2ff#\	.	2A\	.	2A\	.	1.r	.	1.r	.	2r	.
!	!	!	!	!	!	!	!	!	!	!	!	!	!	!	!	!	!	!	!	!	!	!	!	!	!	!	!	!	!	!	!	!LO:LB:g=original	!	!	!	!	!	!	!	!	!
2AA/	x 3	.	2A/	.	4A/	.	2c#/	.	4e/)	.	2C#/	-di	.	2E/	-di	.	.	.	.	.	.	.	.	.	.	.	.	2a/	.	2ee\	.	2AA/	.	2AA/	.	.	.	.	.	4r	.
!	!	!	!	!	!	!	!	!	!LO:LB:g=original	!	!	!	!	!	!	!	!	!	!	!	!	!	!	!	!	!	!	!	!	!	!	!	!	!	!	!	!	!	!	!	!LO:DY:t=for
.	.	.	.	.	4E/	.	.	.	4e'/	.	.	.	.	.	.	.	.	.	.	.	.	.	.	.	.	.	.	.	.	.	.	.	.	.	.	.	.	.	.	4ee'\	f
!	!	!	!	!	!	!	!	!	!	!	!	!	!	!LO:LB:g=original	!	!	!	!	!	!	!	!	!	!	!	!	!	!	!	!	!	!	!	!	!	!	!	!	!	!	!
2r	.	.	2r	.	4A/	.	2r	.	4a'/	.	2r	.	.	2r	.	.	.	.	.	.	.	.	.	.	.	.	.	2r	.	2r	.	2r	.	2r	.	.	.	.	.	4aa'\	.
.	.	.	.	.	4c#/	.	.	.	4cc#'/	.	.	.	.	.	.	.	.	.	.	.	.	.	.	.	.	.	.	.	.	.	.	.	.	.	.	.	.	.	.	4ccc#'\	.
=8	=8	=8	=8	=8	=8	=8	=8	=8	=8	=8	=8	=8	=8	=8	=8	=8	=8	=8	=8	=8	=8	=8	=8	=8	=8	=8	=8	=8	=8	=8	=8	=8	=8	=8	=8	=8	=8	=8	=8	=8	=8
!	!	!	!	!	!	!LO:DY:rj	!	!LO:DY:a:t=for.	!	!LO:DY:t=for	!	!	!	!	!	!	!LO:TX:t=NB	!	!	!	!	!	!	!	!	!	!	!	!	!	!	!	!	!	!	!	!LO:DY:t=for	!	!	!	!
2r	.	.	2r	.	(8e\L	f	(8c#/L	f	8ee\L	f	2r	.	.	2r	.	.	2r	.	.	2r	.	.	1.r	1.r	.	1.r	.	2r	.	2r	.	2r	.	2r	.	2r	f	2r	.	(8eee\L	.
.	.	.	.	.	8c#\)	.	8e/)	.	(8cc#\	.	.	.	.	.	.	.	.	.	.	.	.	.	.	.	.	.	.	.	.	.	.	.	.	.	.	.	.	.	.	8ccc#\	.
!	!	!	!	!	!	!	!	!	!	!	!	!	!	!	!	!	!	!	!	!	!	!	!	!	!	!	!	!	!	!	!	!	!	!	!	!	!	!	!	!	!
.	.	.	.	.	8B\|>	.	(8c#/	.	8b\	.	.	.	.	.	.	.	.	.	.	.	.	.	.	.	.	.	.	.	.	.	.	.	.	.	.	.	.	.	.	8bb\	.
!	!	!	!	!	!	!	!	!	!	!	!	!	!	!	!	!	!	!	!	!	!	!	!	!	!	!	!	!	!	!	!	!	!	!	!	!	!	!	!	!	!
.	.	.	.	.	8A\J|>	.	8e/J	.	8a\J)	.	.	.	.	.	.	.	.	.	.	.	.	.	.	.	.	.	.	.	.	.	.	.	.	.	.	.	.	.	.	8aa\J)	.
!LO:TX:b:t=Tutti	!	!	!	!LO:DY:a:t=for	!	!	!	!	!	!	!	!	!LO:DY:a:t=for	!	!	!LO:DY:a:t=fort:rj	!	!	!LO:DY:rj:t=for&colon;	!	!	!LO:DY:t=ff&colon;	!	!	!	!	!	!	!LO:DY:t=for	!	!LO:DY:t=for	!	!LO:DY:a:t=Forte	!	!LO:DY:a:t=forte	!	!	!	!LO:DY:t=for&colon;	!	!
2E\	7 5	.	2d\	f	(8G#X\L	.	(8B/L)	.	(8g#X\L	.	2G#X\	Mi-	f	2B\	Mi-	f	2e\	Mi-	f	2dd\	Mi-	ff	.	.	.	.	.	2ee\	f	2ee\	f	2E\	f	2G#X\	f	2g#X/	.	2dd\	f	(8gg#X\L	.
.	.	.	.	.	8B\)	.	8e/	.	8b\	.	.	.	.	.	.	.	.	.	.	.	.	.	.	.	.	.	.	.	.	.	.	.	.	.	.	.	.	.	.	8aa\)	.
!	!	!	!	!	!	!	!	!	!	!	!	!	!	!	!	!	!	!	!	!	!	!	!	!	!	!	!	!	!	!	!	!	!	!	!	!	!	!	!	!	!
.	.	.	.	.	8d\|>	.	(8B/)	.	8dd'\)	.	.	.	.	.	.	.	.	.	.	.	.	.	.	.	.	.	.	.	.	.	.	.	.	.	.	.	.	.	.	8ddd'\	.
!	!	!	!	!	!	!	!	!	!	!	!	!	!	!	!	!	!	!	!	!	!	!	!	!	!	!	!	!	!	!	!	!	!	!	!	!	!	!	!	!	!
.	.	.	.	.	8d\J|>	.	8e/J	.	8dd'\J	.	.	.	.	.	.	.	.	.	.	.	.	.	.	.	.	.	.	.	.	.	.	.	.	.	.	.	.	.	.	8ddd'\J	.
2AA/	x 3	.	2c#\	.	(8d\L	.	(8A/L)	.	(8dd\L	.	2A\	-se-	.	2A\	-se-	.	2e\	-se-	.	2cc#\	-se-	.	.	.	.	.	.	2ee\	.	2ee\	.	2AA/	.	2A\	.	2a/	.	2cc#\	.	(8ddd\L	.
.	.	.	.	.	8c#\)	.	8e/	.	8cc#\	.	.	.	.	.	.	.	.	.	.	.	.	.	.	.	.	.	.	.	.	.	.	.	.	.	.	.	.	.	.	8ccc#\	.
!	!	!	!	!	!	!	!	!	!	!	!	!	!	!	!	!	!	!	!	!	!	!	!	!	!	!	!	!	!	!	!	!	!	!	!	!	!	!	!	!	!
.	.	.	.	.	8B\|>	.	(8A/)	.	8b\	.	.	.	.	.	.	.	.	.	.	.	.	.	.	.	.	.	.	.	.	.	.	.	.	.	.	.	.	.	.	8bb\	.
!	!	!	!	!	!	!	!	!	!	!	!	!	!	!	!	!	!	!	!	!	!	!	!	!	!	!	!	!	!	!	!	!	!	!	!	!	!	!	!	!	!
.	.	.	.	.	8A\J|>	.	8e/J)	.	8a\J)	.	.	.	.	.	.	.	.	.	.	.	.	.	.	.	.	.	.	.	.	.	.	.	.	.	.	.	.	.	.	8aa\J)	.
!	!	!	!	!	!	!	!	!	!	!	!	!	!	!	!	!	!	!	!	!LO:TX:t=NB&colon;	!	!	!	!	!	!	!	!	!	!	!	!	!	!	!	!	!	!	!	!	!
=9	=9	=9	=9	=9	=9	=9	=9	=9	=9	=9	=9	=9	=9	=9	=9	=9	=9	=9	=9	=9	=9	=9	=9	=9	=9	=9	=9	=9	=9	=9	=9	=9	=9	=9	=9	=9	=9	=9	=9	=9	=9
!	!	!	!	!	!	!	!LO:LB:g=original	!	!	!	!	!	!	!	!	!	!	!	!	!	!	!	!	!	!	!	!	!	!	!	!	!	!	!	!	!	!	!	!	!	!
2r	.	.	2r	.	(8e\L	.	(8c#/L	.	8ee\L	.	2r	.	.	2r	.	.	2r	.	.	2r	.	.	1.r	1.r	.	1.r	.	2r	.	2r	.	2r	.	2r	.	2r	.	2r	.	(8eee\L	.
.	.	.	.	.	8c#\)	.	8e/	.	(8cc#\	.	.	.	.	.	.	.	.	.	.	.	.	.	.	.	.	.	.	.	.	.	.	.	.	.	.	.	.	.	.	8ccc#\	.
!	!	!	!	!	!	!	!	!	!	!	!	!	!	!	!	!	!	!	!	!	!	!	!	!	!	!	!	!	!	!	!	!	!	!	!	!	!	!	!	!	!
.	.	.	.	.	8B\|>	.	(8c#/)	.	8b\	.	.	.	.	.	.	.	.	.	.	.	.	.	.	.	.	.	.	.	.	.	.	.	.	.	.	.	.	.	.	8bb\)	.
!	!	!	!	!	!	!	!	!	!	!	!	!	!	!	!	!	!	!	!	!	!	!	!	!	!	!	!	!	!	!	!	!	!	!	!	!	!	!	!	!	!
.	.	.	.	.	8A\J|>	.	8e/J	.	8a\J)	.	.	.	.	.	.	.	.	.	.	.	.	.	.	.	.	.	.	.	.	.	.	.	.	.	.	.	.	.	.	8aa\J	.
2E\	7 5	.	2d\	.	(8G#X\L	.	(8B/L)	.	(8g#X\L	.	2G#X\|>	-re-	.	2B\	-re-	.	2e\	-re-	.	2dd\	-re-	.	.	.	.	.	.	4ee\	.	4ee\	.	2E\	.	2G#X\	.	2g#X/	.	2dd\	.	(8gg#X\L	.
.	.	.	.	.	8B\)	.	8e/	.	8b\	.	.	.	.	.	.	.	.	.	.	.	.	.	.	.	.	.	.	.	.	.	.	.	.	.	.	.	.	.	.	8bb\)	.
!	!	!	!	!	!	!	!	!	!	!	!	!	!	!	!	!	!	!	!	!	!	!	!	!	!	!	!	!	!	!	!	!	!	!	!	!	!	!	!	!	!
.	.	.	.	.	8d\|>	.	(8B/)	.	8dd'\)	.	.	.	.	.	.	.	.	.	.	.	.	.	.	.	.	.	.	4ee\	.	4ee\	.	.	.	.	.	.	.	.	.	8ddd'\	.
!	!	!	!	!	!	!	!	!	!	!	!	!	!	!	!	!	!	!	!	!	!	!	!	!	!	!	!	!	!	!	!	!	!	!	!	!	!	!	!	!	!
.	.	.	.	.	8d\J|>	.	8e/J	.	8dd'\J	.	.	.	.	.	.	.	.	.	.	.	.	.	.	.	.	.	.	.	.	.	.	.	.	.	.	.	.	.	.	8ddd'\J	.
2AA/	x 3	.	2c#\	.	(8d\L	.	(8A/L)	.	8dd\L	.	2A\|>	-re	.	2A\	-re	.	2e\	-re	.	2cc#\	-re	.	.	.	.	.	.	2a/	.	2ee\	.	2AA/	.	2A\	.	2a/	.	2cc#\	.	(8ddd\L	.
.	.	.	.	.	8c#\)	.	8e/	.	8cc#\	.	.	.	.	.	.	.	.	.	.	.	.	.	.	.	.	.	.	.	.	.	.	.	.	.	.	.	.	.	.	8ccc#\	.
!	!	!	!	!	!	!	!	!	!	!	!	!	!	!	!	!	!	!	!	!	!	!	!	!	!	!	!	!	!	!	!	!	!	!	!	!	!	!	!	!	!
.	.	.	.	.	8B\|>	.	(8A/)	.	8b\	.	.	.	.	.	.	.	.	.	.	.	.	.	.	.	.	.	.	.	.	.	.	.	.	.	.	.	.	.	.	8bb\)	.
!	!	!	!	!	!	!	!	!	!	!	!	!	!	!	!	!	!	!	!	!	!	!	!	!	!	!	!	!	!	!	!	!	!	!	!	!	!	!	!	!	!
.	.	.	.	.	8A\J|>	.	8e/J)	.	8a\J	.	.	.	.	.	.	.	.	.	.	.	.	.	.	.	.	.	.	.	.	.	.	.	.	.	.	.	.	.	.	8aa\J	.
=10	=10	=10	=10	=10	=10	=10	=10	=10	=10	=10	=10	=10	=10	=10	=10	=10	=10	=10	=10	=10	=10	=10	=10	=10	=10	=10	=10	=10	=10	=10	=10	=10	=10	=10	=10	=10	=10	=10	=10	=10	=10
*	*	*	*	*	*	*	*	*	*	*	*	*	*	*	*ij	*	*	*	*	*	*	*	*	*	*	*	*	*	*	*	*	*	*	*	*	*	*	*	*	*	*
!	!	!	!	!	!	!	!	!	!	!	!	!	!	!	!	!	!	!	!	!	!	!	!	!	!	!	!	!	!	!LO:LB:g=original	!	!	!	!	!	!LO:N:vis=2.	!	!	!	!	!
4D\	5 3	.	4a\	.	(8f#\L	.	8d/L	.	8ff#\L	.	1D	Mi-	.	1d	Mi-	.	1a	mi-	.	1ff#	mi-	.	1.r	1.r	.	1.r	.	1.dd	.	1.ff#	.	4D\	.	4D\	.	1.dd	.	1.ff#	.	(8fff#\L	.
.	.	.	.	.	8d\)	.	8f#/	.	8dd\	.	.	.	.	.	.	.	.	.	.	.	.	.	.	.	.	.	.	.	.	.	.	.	.	.	.	.	.	.	.	8ddd\)	.
!	!	!	!	!	!	!	!	!	!	!	!	!	!	!	!	!	!	!	!	!	!	!	!	!	!	!	!	!	!	!	!	!	!	!	!	!	!	!	!	!	!
4D\	.	.	2a\	.	8A\|>	.	8d/	.	8a\	.	.	.	.	.	.	.	.	.	.	.	.	.	.	.	.	.	.	.	.	.	.	4D\	.	4D\	.	.	.	.	.	8aa'\	.
!	!	!	!	!	!	!	!	!	!	!	!	!	!	!	!	!	!	!	!	!	!	!	!	!	!	!	!	!	!	!	!	!	!	!	!	!	!	!	!	!	!
.	.	.	.	.	8A\J|>	.	8f#/J	.	8a\J	.	.	.	.	.	.	.	.	.	.	.	.	.	.	.	.	.	.	.	.	.	.	.	.	.	.	.	.	.	.	8aa'\J	.
!	!	!	!	!	!LO:TX:t=P:problem:mixed beam	!	!	!	!	!	!	!	!	!	!	!	!	!	!	!	!	!	!	!	!	!	!	!	!	!	!	!	!	!	!	!	!	!	!	!	!
4D\	_ _	.	.	.	(8A\L	.	8d/L	.	8a\L	.	.	.	.	.	.	.	.	.	.	.	.	.	.	.	.	.	.	.	.	.	.	4D\	.	4D\	.	.	.	.	.	8aa\L	.
.	.	.	.	.	8d\)	.	8f#/	.	8dd\	.	.	.	.	.	.	.	.	.	.	.	.	.	.	.	.	.	.	.	.	.	.	.	.	.	.	.	.	.	.	8ddd\	.
!	!	!	!	!	!	!	!	!	!	!	!	!	!	!	!	!	!	!	!	!	!	!	!	!	!	!	!	!	!	!	!	!	!	!	!	!	!	!	!	!	!
4D\	.	.	2a\	.	8f#\|>	.	8d/	.	8ff#\	.	.	.	.	.	.	.	.	.	.	.	.	.	.	.	.	.	.	.	.	.	.	4D\	.	4D\	.	.	.	.	.	8fff#\	.
!	!	!	!	!	!	!	!	!	!	!	!	!	!	!	!	!	!	!	!	!	!	!	!	!	!	!	!	!	!	!	!	!	!	!	!	!	!	!	!	!	!
.	.	.	.	.	8A/J|>	.	8f#/J	.	8a\J	.	.	.	.	.	.	.	.	.	.	.	.	.	.	.	.	.	.	.	.	.	.	.	.	.	.	.	.	.	.	8aa\J	.
!	!	!	!	!	!LO:TX:t=P:problem:mixed beam	!	!	!	!	!	!	!	!	!	!	!	!	!	!	!	!	!	!	!	!	!	!	!	!	!	!	!	!	!	!	!	!	!	!	!LO:LB:g=original	!
4D\	.	.	.	.	(8a\L	.	8d/L	.	8aa\L	.	2D/	-se-	.	2d\	-se-	.	2a\	-se-	.	2ff#\	-si-	.	.	.	.	.	.	.	.	.	.	4D\	.	4D\	.	.	.	.	.	8ddd\L	.
.	.	.	.	.	8A/)	.	8f#/	.	8a\	.	.	.	.	.	.	.	.	.	.	.	.	.	.	.	.	.	.	.	.	.	.	.	.	.	.	.	.	.	.	8aa\	.
4D\	x x	.	4a\	.	(8f#\	.	8d/	.	8ff#\	.	.	.	.	.	.	.	.	.	.	.	.	.	.	.	.	.	.	.	.	.	.	4D\	.	4D\	.	.	.	.	.	8fff#\	.
.	.	.	.	.	8A/J)	.	8f#/J	.	8a\J	.	.	.	.	.	.	.	.	.	.	.	.	.	.	.	.	.	.	.	.	.	.	.	.	.	.	.	.	.	.	8aa\J	.
=11	=11	=11	=11	=11	=11	=11	=11	=11	=11	=11	=11	=11	=11	=11	=11	=11	=11	=11	=11	=11	=11	=11	=11	=11	=11	=11	=11	=11	=11	=11	=11	=11	=11	=11	=11	=11	=11	=11	=11	=11	=11
!LO:LB:g=original	!	!	!LO:LB:g=original	!	!	!	!	!	!	!	!	!	!	!	!	!	!	!	!	!	!	!	!	!	!	!	!	!	!	!	!	!	!	!	!	!LO:N:vis=2.	!	!	!	!	!
4C#/	6 3	.	4a\	.	8e\L	.	8c#/L	.	8ee\L	.	1C#	-re-	.	1c#	-re-	.	1a	-re-	.	1ee	-re-	.	1.r	1.r	.	1.r	.	1.a	.	1.ee	.	4C#/	.	4C#/	.	1.cc#	.	1.ee	.	(8eee\L	.
.	.	.	.	.	8c#\	.	8e/	.	8cc#\	.	.	.	.	.	.	.	.	.	.	.	.	.	.	.	.	.	.	.	.	.	.	.	.	.	.	.	.	.	.	8ccc#\)	.
!	!	!	!	!	!	!	!	!	!	!	!	!	!	!	!	!	!	!	!	!	!	!	!	!	!	!	!	!	!	!	!	!	!	!	!	!	!	!	!	!	!
4C#/	_ _	.	2a\	.	8A\|>	.	8c#/	.	8a\	.	.	.	.	.	.	.	.	.	.	.	.	.	.	.	.	.	.	.	.	.	.	4C#/	.	4C#/	.	.	.	.	.	8aa'\	.
!	!	!	!	!	!	!	!	!	!	!	!	!	!	!	!	!	!	!	!	!	!	!	!	!	!	!	!	!	!	!	!	!	!	!	!	!	!	!	!	!	!
.	.	.	.	.	8A\J|>	.	8e/J	.	8a\J	.	.	.	.	.	.	.	.	.	.	.	.	.	.	.	.	.	.	.	.	.	.	.	.	.	.	.	.	.	.	8aa'\J	.
4C#/	.	.	.	.	(8A\L	.	8c#/L	.	8a\L	.	.	.	.	.	.	.	.	.	.	.	.	.	.	.	.	.	.	.	.	.	.	4C#/	.	4C#/	.	.	.	.	.	8aa\L	.
.	.	.	.	.	8c#\)	.	8e/	.	8cc#\	.	.	.	.	.	.	.	.	.	.	.	.	.	.	.	.	.	.	.	.	.	.	.	.	.	.	.	.	.	.	8ccc#\	.
!	!	!	!	!	!	!	!	!	!	!	!	!	!	!	!	!	!	!	!	!	!	!	!	!	!	!	!	!	!	!	!	!	!	!	!	!	!	!	!	!	!
4C#/	x x	.	2a\	.	8e\|>	.	8c#/	.	8ee\	.	.	.	.	.	.	.	.	.	.	.	.	.	.	.	.	.	.	.	.	.	.	4C#/	.	4C#/	.	.	.	.	.	8eee\	.
!	!	!	!	!	!	!	!	!	!	!	!	!	!	!	!	!	!	!	!	!	!	!	!	!	!	!	!	!	!	!	!	!	!	!	!	!	!	!	!	!	!
.	.	.	.	.	8e\J|>	.	8e/J	.	8a\J	.	.	.	.	.	.	.	.	.	.	.	.	.	.	.	.	.	.	.	.	.	.	.	.	.	.	.	.	.	.	8aa\J	.
4C#/	.	.	.	.	8a\L	.	8c#/L	.	8aa\L	.	2C#/	-re	.	2c#\	-re	.	2a\	-re	.	2ee\	-re	.	.	.	.	.	.	.	.	.	.	4C#/	.	4C#/	.	.	.	.	.	8ccc#\L	.
.	.	.	.	.	8A\	.	8e/	.	8a\	.	.	.	.	.	.	.	.	.	.	.	.	.	.	.	.	.	.	.	.	.	.	.	.	.	.	.	.	.	.	8aa\	.
4C#/	.	.	4a\	.	8e\	.	8c#/	.	8ee\	.	.	.	.	.	.	.	.	.	.	.	.	.	.	.	.	.	.	.	.	.	.	4C#/	.	4C#/	.	.	.	.	.	8eee\	.
.	.	.	.	.	8A\J	.	8e/J	.	8a\J	.	.	.	.	.	.	.	.	.	.	.	.	.	.	.	.	.	.	.	.	.	.	.	.	.	.	.	.	.	.	8aa\J	.
*	*	*	*	*	*	*	*	*	*	*	*	*	*	*	*Xij	*	*	*	*	*	*	*	*	*	*	*	*	*	*	*	*	*	*	*	*	*	*	*	*	*	*
=12	=12	=12	=12	=12	=12	=12	=12	=12	=12	=12	=12	=12	=12	=12	=12	=12	=12	=12	=12	=12	=12	=12	=12	=12	=12	=12	=12	=12	=12	=12	=12	=12	=12	=12	=12	=12	=12	=12	=12	=12	=12
!	!	!	!	!	!	!	!	!	!	!	!	!	!	!	!	!	!	!	!	!	!	!	!	!	!	!	!	!LO:LB:g=original	!	!	!	!	!	!	!	!	!	!	!	!	!
4D\	x 6	.	2f#\	.	(8f#\L	.	(8d/L	.	(8ff#\L	.	(>2D/	no-	.	2B\	no-	.	2f#\	no-	.	(2dd\	no-	.	1.r	1.r	.	1.r	.	2dd\	.	2ff#\	.	4D\	.	4D\	.	2b/	.	2dd\	.	(8fff#\L	.
.	.	.	.	.	8d\)	.	8f#/	.	8dd\	.	.	.	.	.	.	.	.	.	.	.	.	.	.	.	.	.	.	.	.	.	.	.	.	.	.	.	.	.	.	8ddd\)	.
!	!	!	!	!	!	!	!	!	!	!	!	!	!	!	!	!	!	!	!	!	!	!	!	!	!	!	!	!	!	!	!	!	!	!	!	!	!	!	!	!	!
4D\	.	.	.	.	8B\|>	.	8d/)|<	.	8b'\)	.	.	.	.	.	.	.	.	.	.	.	.	.	.	.	.	.	.	.	.	.	.	4D\	.	4D\	.	.	.	.	.	8bb'\	.
!	!	!	!	!	!	!	!	!	!	!	!	!	!	!	!	!	!	!	!	!	!	!	!	!	!	!	!	!	!	!	!	!	!	!	!	!	!	!	!	!	!
.	.	.	.	.	8B\J|>	.	8d/J|<	.	8b'\J	.	.	.	.	.	.	.	.	.	.	.	.	.	.	.	.	.	.	.	.	.	.	.	.	.	.	.	.	.	.	8bb'\J	.
!	!	!	!	!	!	!	!	!	!LO:LB:g=original	!	!	!	!	!	!	!	!	!	!	!	!	!	!	!	!	!	!	!	!	!	!	!	!	!LO:LB:g=original	!	!	!	!	!	!	!
4E\	x 4	.	2e\	.	(8e\L	.	(8c#/L	.	(8ee\L	.	2E/)	.	.	2A\	.	.	2e\	.	.	2cc#\)	.	.	.	.	.	.	.	2ee\	.	2ee\	.	4E\	.	4E\	.	2a/	.	2cc#\	.	(8ddd\L	.
.	.	.	.	.	8c#\)	.	8e/)	.	8cc#\	.	.	.	.	.	.	.	.	.	.	.	.	.	.	.	.	.	.	.	.	.	.	.	.	.	.	.	.	.	.	8ccc#\)	.
!	!	!	!	!	!	!	!	!	!	!	!	!	!	!	!	!	!	!	!	!	!	!	!	!	!	!	!	!	!	!	!	!	!	!	!	!	!	!	!	!	!
4E\	x 3	.	.	.	8A\|>	.	8c#/|<	.	8a\)	.	.	.	.	.	.	.	.	.	.	.	.	.	.	.	.	.	.	.	.	.	.	4E\	.	4E\	.	.	.	.	.	8aa'\	.
!	!	!	!	!	!	!	!	!	!	!	!	!	!	!	!	!	!	!	!	!	!	!	!	!	!	!	!	!	!	!	!	!	!	!	!	!	!	!	!	!	!
.	.	.	.	.	8A\J|>	.	8c#/J|<	.	8a'\J	.	.	.	.	.	.	.	.	.	.	.	.	.	.	.	.	.	.	.	.	.	.	.	.	.	.	.	.	.	.	8aa'\J	.
!	!	!	!	!	!LO:LB:g=original	!	!	!	!	!	!	!	!	!	!	!	!	!	!	!	!	!	!	!	!	!	!	!	!	!	!	!	!	!	!	!	!	!	!	!	!
4EE/	.	.	2e\	.	(8d/L	.	(8B/L	.	(8dd\L	.	2E/	-bis	.	2G#X/	-bis	.	2e\	-bis	.	2b\	-bis	.	.	.	.	.	.	2ee\	.	2ee\	.	4EE/	.	4EE/	.	2g#X/	.	2b\	.	(8ddd\L	.
.	.	.	.	.	8d/)	.	8d/)	.	8b\	.	.	.	.	.	.	.	.	.	.	.	.	.	.	.	.	.	.	.	.	.	.	.	.	.	.	.	.	.	.	8bb\)	.
!	!	!	!	!	!	!	!	!	!	!	!	!	!	!	!	!	!	!	!	!	!	!	!	!	!	!	!	!	!	!	!	!	!	!	!	!	!	!	!	!	!
4EE/	.	.	.	.	8G#X/|<	.	8B/|<	.	8g#X\)'	.	.	.	.	.	.	.	.	.	.	.	.	.	.	.	.	.	.	.	.	.	.	4EE/	.	4EE/	.	.	.	.	.	8gg#X'\	.
!	!	!	!	!	!	!	!	!	!	!	!	!	!	!	!	!	!	!	!	!	!	!	!	!	!	!	!	!	!	!	!	!	!	!	!	!	!	!	!	!	!
.	.	.	.	.	8G#/J|<	.	8B/J|<	.	8g#'\J	.	.	.	.	.	.	.	.	.	.	.	.	.	.	.	.	.	.	.	.	.	.	.	.	.	.	.	.	.	.	8gg#'\J	.
=13	=13	=13	=13	=13	=13	=13	=13	=13	=13	=13	=13	=13	=13	=13	=13	=13	=13	=13	=13	=13	=13	=13	=13	=13	=13	=13	=13	=13	=13	=13	=13	=13	=13	=13	=13	=13	=13	=13	=13	=13	=13
!LO:TX:a:t=Solo	!	!	!	!	!	!	!LO:TX:t=P:problem:mixed beam	!	!	!	!LO:TX:a:t=1.	!	!	!LO:TX:a:t=1.	!	!	!LO:TX:a:t=1.	!	!	!LO:TX:a:t=1.	!	!	!	!	!	!	!	!	!	!	!	!	!	!	!	!LO:TX:a:t=1	!	!LO:TX:a:t=1	!	!	!
2AA/	.	.	4d\	.	(8A\L	.	8A/L	.	(8a\L	.	1.r	.	.	1.r	.	.	1.r	.	.	1.r	.	.	1.r	1.r	.	1.r	.	1.ryy	.	1.r	.	1.r	.	1.r	.	1.r	.	1.r	.	4aa\	.
.	.	.	.	.	8c#\)	.	8a\J	.	8cc#\)	.	.	.	.	.	.	.	.	.	.	.	.	.	.	.	.	.	.	.	.	.	.	.	.	.	.	.	.	.	.	.	.
.	.	.	4G#X/	.	(8B\	.	4g#X/	.	(8b\	.	.	.	.	.	.	.	.	.	.	.	.	.	.	.	.	.	.	.	.	.	.	.	.	.	.	.	.	.	.	4r	.
.	.	.	.	.	8d\J)	.	.	.	8dd\J)	.	.	.	.	.	.	.	.	.	.	.	.	.	.	.	.	.	.	.	.	.	.	.	.	.	.	.	.	.	.	.	.
2r	.	.	4A/	.	(8c#\L	.	4a/	.	(8cc#\L	.	.	.	.	.	.	.	.	.	.	.	.	.	.	.	.	.	.	.	.	.	.	.	.	.	.	.	.	.	.	2r	.
.	.	.	.	.	8e\)	.	.	.	8ee\)	.	.	.	.	.	.	.	.	.	.	.	.	.	.	.	.	.	.	.	.	.	.	.	.	.	.	.	.	.	.	.	.
.	.	.	4B/	.	(8d\	.	4b/	.	(8dd\	.	.	.	.	.	.	.	.	.	.	.	.	.	.	.	.	.	.	.	.	.	.	.	.	.	.	.	.	.	.	.	.
.	.	.	.	.	8f#\J)	.	.	.	8ff#\J)	.	.	.	.	.	.	.	.	.	.	.	.	.	.	.	.	.	.	.	.	.	.	.	.	.	.	.	.	.	.	.	.
2AA/	.	.	(8c#\L	.	(8e\L	.	8cc#\L	.	8ee\L	.	.	.	.	.	.	.	.	.	.	.	.	.	.	.	.	.	.	.	.	.	.	.	.	.	.	.	.	.	.	2r	.
.	.	.	8d\)	.	8f#\	.	8dd\	.	(8ff#\	.	.	.	.	.	.	.	.	.	.	.	.	.	.	.	.	.	.	.	.	.	.	.	.	.	.	.	.	.	.	.	.
.	.	.	(8B\	.	8g#X\)	.	8b\	.	8gg#X\	.	.	.	.	.	.	.	.	.	.	.	.	.	.	.	.	.	.	.	.	.	.	.	.	.	.	.	.	.	.	.	.
.	.	.	8c#\J)	.	8a\J	.	8cc#\J	.	8aa\J)	.	.	.	.	.	.	.	.	.	.	.	.	.	.	.	.	.	.	.	.	.	.	.	.	.	.	.	.	.	.	.	.
=14	=14	=14	=14	=14	=14	=14	=14	=14	=14	=14	=14	=14	=14	=14	=14	=14	=14	=14	=14	=14	=14	=14	=14	=14	=14	=14	=14	=14	=14	=14	=14	=14	=14	=14	=14	=14	=14	=14	=14	=14	=14
!	!	!LO:DY:t=forte	!	!	!	!	!	!	!	!	!	!	!	!	!	!	!	!	!	!	!	!	!	!	!	!	!	!	!	!	!	!	!	!	!	!	!	!	!	!	!
2D\	x 6	f	2d\	.	8g#X\L	.	8ee\L	.	8gg#X\L	.	2r	.	.	2r	.	.	2r	.	.	2r	.	.	1.r	1.r	.	1.r	.	2r	.	2r	.	2D\	.	2D\	.	2r	.	2r	.	2r	.
.	.	.	.	.	(8f#\	.	(8dd\	.	(8ff#\	.	.	.	.	.	.	.	.	.	.	.	.	.	.	.	.	.	.	.	.	.	.	.	.	.	.	.	.	.	.	.	.
.	.	.	.	.	8e\	.	8cc#\	.	8ee\	.	.	.	.	.	.	.	.	.	.	.	.	.	.	.	.	.	.	.	.	.	.	.	.	.	.	.	.	.	.	.	.
.	.	.	.	.	8d\J)	.	8b\J)	.	8dd\J)	.	.	.	.	.	.	.	.	.	.	.	.	.	.	.	.	.	.	.	.	.	.	.	.	.	.	.	.	.	.	.	.
!	!	!	!	!	!	!	!	!	!	!	!	!	!	!	!	!	!	!	!	!	!	!	!	!	!	!	!	!	!	!	!	!	!	!	!	!	!	!	!	!	!
2E\	x 4	.	2e\	.	2e\	.	2a/	.	2cc#\	.	1E	no-	.	2A/	no-	.	1e	no-	.	(2cc#\	no-	.	.	.	.	.	.	2ee\	.	2ee\	.	2E\	.	2E\	.	2a/	.	2cc#\	.	2ccc#\	.
2EE/	x 3	.	2E/	.	2e\	.	2e/	.	2b\	.	.	.	.	2G#X/	.	.	.	.	.	2b\)	.	.	.	.	.	.	.	4ee\	.	4ee\	.	2EE/	.	2EE/	.	2g#X/	.	2b\	.	2bb\	.
.	.	.	.	.	.	.	.	.	.	.	.	.	.	.	.	.	.	.	.	.	.	.	.	.	.	.	.	4ee\	.	4ee\	.	.	.	.	.	.	.	.	.	.	.
=15	=15	=15	=15	=15	=15	=15	=15	=15	=15	=15	=15	=15	=15	=15	=15	=15	=15	=15	=15	=15	=15	=15	=15	=15	=15	=15	=15	=15	=15	=15	=15	=15	=15	=15	=15	=15	=15	=15	=15	=15	=15
!	!	!	!	!	!	!	!LO:LB:g=original	!	!	!	!	!	!	!	!	!	!	!	!	!	!	!	!	!	!	!	!	!	!	!	!	!	!	!	!	!	!	!	!	!	!
2AA/	.	.	2A/	.	2e\	.	2c#/	.	2a/	.	2AA/	-bis	.	2A/	-bis	.	2c#/	-bis	.	2a\	-bis	.	1.r	1.r	.	1.r	.	2a/	.	2ee\	.	2AA/	.	2AA/	.	2a/	.	2a/	.	2aa\	.
2r	.	.	2r	.	2r	.	4r	.	4r	.	2r	.	.	2r	.	.	2r	.	.	2r	.	.	.	.	.	.	.	2r	.	2r	.	2r	.	2r	.	4r	.	4r	.	2r	.
!	!	!	!	!	!	!	!LO:TX:a:t=Dolce	!	!LO:TX:a:t=Dolce	!	!	!	!	!	!	!	!	!	!	!	!	!	!	!	!	!	!	!	!	!	!	!	!	!	!	!LO:TX:t=NB:b	!	!LO:TX:b:t=Solo dolce	!	!	!
.	.	.	.	.	.	.	4d/	.	4f#'/	.	.	.	.	.	.	.	.	.	.	.	.	.	.	.	.	.	.	.	.	.	.	.	.	.	.	4dd\|>	.	4ff#\	.	.	.
!	!	!	!	!	!	!	!	!	!	!	!	!	!	!	!	!	!	!	!	!	!	!	!	!	!	!	!	!	!	!	!	!	!	!	!	!	!	!	!	!	!
2r	.	.	2r	.	2r	.	4f#/	.	4a'/	.	2r	.	.	2r	.	.	2r	.	.	2r	.	.	.	.	.	.	.	2r	.	2r	.	2r	.	2r	.	4ff#\|>	.	4aa\	.	2r	.
!	!	!	!	!	!	!	!	!	!	!	!	!	!	!	!	!	!	!	!	!	!	!	!	!	!	!	!	!	!	!	!	!	!	!	!	!	!	!	!	!	!
.	.	.	.	.	.	.	4d/	.	4f#'/	.	.	.	.	.	.	.	.	.	.	.	.	.	.	.	.	.	.	.	.	.	.	.	.	.	.	4dd\|>	.	4ff#\	.	.	.
=16	=16	=16	=16	=16	=16	=16	=16	=16	=16	=16	=16	=16	=16	=16	=16	=16	=16	=16	=16	=16	=16	=16	=16	=16	=16	=16	=16	=16	=16	=16	=16	=16	=16	=16	=16	=16	=16	=16	=16	=16	=16
!	!	!	!	!	!	!	!	!	!	!	!	!	!	!	!	!	!	!	!	!LO:LB:g=original	!	!	!	!	!	!	!	!	!	!	!	!	!	!	!	!	!	!	!	!	!
!LO:TX:t=Pedal	!	!	!LO:TX:a:t=3	!	!	!	!	!	!	!	!LO:TX:a:t=14.	!	!	!LO:TX:a:t=14.	!	!	!LO:TX:a:t=6.	!	!	!LO:TX:a:t=6.	!	!	!	!	!	!	!	!	!	!	!LO:DY:t=piano	!LO:LB:g=original	!LO:DY:a:t=Piano	!	!LO:DY:a:t=Piano	!LO:TX:b:t=Solo dolce	!	!LO:LB:g=original	!	!	!LO:DY:t=for:rj
2A\	.	.	0.r	.	2A/	.	(4.c#/	.	4.e/	.	00.r	.	.	00.r	.	.	00.r	.	.	00.r	.	.	1.r	1.r	.	1.r	.	4a/	p	4a/	p	2A\	p	2A\	p	(4.cc#\	.	(4.ee\	.	8a\L	f
.	.	.	.	.	.	.	.	.	.	.	.	.	.	.	.	.	.	.	.	.	.	.	.	.	.	.	.	.	.	.	.	.	.	.	.	.	.	.	.	16b\L	.
.	.	.	.	.	.	.	.	.	.	.	.	.	.	.	.	.	.	.	.	.	.	.	.	.	.	.	.	.	.	.	.	.	.	.	.	.	.	.	.	16cc#\JJ	.
.	.	.	.	.	.	.	.	.	.	.	.	.	.	.	.	.	.	.	.	.	.	.	.	.	.	.	.	8a/L	.	8a/L	.	.	.	.	.	.	.	.	.	16dd\LL	.
.	.	.	.	.	.	.	.	.	.	.	.	.	.	.	.	.	.	.	.	.	.	.	.	.	.	.	.	.	.	.	.	.	.	.	.	.	.	.	.	16ee\	.
.	.	.	.	.	.	.	8A/)	.	8c#/	.	.	.	.	.	.	.	.	.	.	.	.	.	.	.	.	.	.	8a/J	.	8a/J	.	.	.	.	.	8a/)	.	8cc#\	.	16ff#\	.
.	.	.	.	.	.	.	.	.	.	.	.	.	.	.	.	.	.	.	.	.	.	.	.	.	.	.	.	.	.	.	.	.	.	.	.	.	.	.	.	16gg\JJ	.
!	!	!	!	!	!	!	!	!	!	!	!	!	!	!	!	!	!	!	!	!	!	!	!	!	!	!	!	!	!	!	!	!	!	!	!	!	!	!	!	!	!
2AA/	.	.	.	.	2A/	.	4c#/	.	4e'/	.	.	.	.	.	.	.	.	.	.	.	.	.	.	.	.	.	.	4a/	.	4a/	.	2AA/	.	2AA/	.	4cc#\|>	.	4ee\)|>	.	4aa\	.
!	!	!	!	!	!	!	!	!	!	!	!	!	!	!	!	!	!	!	!	!	!	!	!	!	!	!	!	!	!	!	!	!	!	!	!	!	!	!	!	!	!
.	.	.	.	.	.	.	4d/	.	4f#'/	.	.	.	.	.	.	.	.	.	.	.	.	.	.	.	.	.	.	4r	.	4r	.	.	.	.	.	4dd\|>	.	4ff#\|>	.	4r	.
!	!	!	!	!	!	!	!	!	!	!	!	!	!	!	!	!	!	!	!	!	!	!	!	!	!	!	!	!	!	!	!	!	!	!	!	!	!	!	!	!LO:LB:g=original	!
2r	.	.	.	.	2r	.	4f#/	.	4a'/	.	.	.	.	.	.	.	.	.	.	.	.	.	.	.	.	.	.	2r	.	2r	.	2r	.	2r	.	4ff#\|>	.	4aa\|>	.	2r	.
!	!	!	!	!	!	!	!	!	!	!	!	!	!	!	!	!	!	!	!	!	!	!	!	!	!	!	!	!	!	!	!	!	!	!	!	!	!	!	!	!	!
.	.	.	.	.	.	.	4d/	.	4f#'/	.	.	.	.	.	.	.	.	.	.	.	.	.	.	.	.	.	.	.	.	.	.	.	.	.	.	4dd\|>	.	4ff#\|>	.	.	.
=17	=17	=17	=17	=17	=17	=17	=17	=17	=17	=17	=17	=17	=17	=17	=17	=17	=17	=17	=17	=17	=17	=17	=17	=17	=17	=17	=17	=17	=17	=17	=17	=17	=17	=17	=17	=17	=17	=17	=17	=17	=17
!	!	!	!	!	!	!	!	!	!	!	!	!	!	!	!	!	!	!	!	!	!	!	!	!	!	!	!	!	!	!	!	!	!	!	!	!LO:LB:g=original	!	!	!	!	!LO:DY:t=for:rj
2A\	.	.	.	.	2A/	.	(4.c#/	.	(4.e/	.	.	.	.	.	.	.	.	.	.	.	.	.	1.r	1.r	.	1.r	.	4a/	.	4a/	.	2A\	.	2A\	.	(4.cc#\	.	(4.ee\	.	8a\L	f
.	.	.	.	.	.	.	.	.	.	.	.	.	.	.	.	.	.	.	.	.	.	.	.	.	.	.	.	.	.	.	.	.	.	.	.	.	.	.	.	16b\L	.
.	.	.	.	.	.	.	.	.	.	.	.	.	.	.	.	.	.	.	.	.	.	.	.	.	.	.	.	.	.	.	.	.	.	.	.	.	.	.	.	16cc#\JJ	.
.	.	.	.	.	.	.	.	.	.	.	.	.	.	.	.	.	.	.	.	.	.	.	.	.	.	.	.	8a/L	.	8a/L	.	.	.	.	.	.	.	.	.	16dd\LL	.
.	.	.	.	.	.	.	.	.	.	.	.	.	.	.	.	.	.	.	.	.	.	.	.	.	.	.	.	.	.	.	.	.	.	.	.	.	.	.	.	16ee\	.
.	.	.	.	.	.	.	8A/)	.	8c#/)	.	.	.	.	.	.	.	.	.	.	.	.	.	.	.	.	.	.	8a/J	.	8a/J	.	.	.	.	.	8a/)	.	8cc#\	.	16ff#\	.
.	.	.	.	.	.	.	.	.	.	.	.	.	.	.	.	.	.	.	.	.	.	.	.	.	.	.	.	.	.	.	.	.	.	.	.	.	.	.	.	16gg\JJ	.
!	!	!	!	!	!	!	!	!	!	!	!	!	!	!	!	!	!	!	!	!	!	!	!	!	!	!	!	!	!	!	!	!	!	!	!	!	!	!	!	!	!
2AA/	.	.	.	.	2A/	.	4c#/|<	.	4e'/	.	.	.	.	.	.	.	.	.	.	.	.	.	.	.	.	.	.	4a/	.	4a/	.	2AA/	.	2AA/	.	4cc#\|>	.	4ee\)	.	4aa\	.
!	!	!	!	!	!	!	!	!	!	!	!	!	!	!	!	!	!	!	!	!	!	!	!	!	!	!	!	!	!	!	!	!	!	!	!	!	!	!	!	!	!
.	.	.	.	.	.	.	4d/|<	.	4f#'/	.	.	.	.	.	.	.	.	.	.	.	.	.	.	.	.	.	.	4r	.	4r	.	.	.	.	.	4dd\|>	.	4ff#\|>	.	4r	.
!	!	!	!	!	!	!	!	!	!	!	!	!	!	!	!	!	!	!	!	!	!	!	!	!	!	!	!	!	!	!	!	!	!	!	!	!	!	!	!	!	!
2r	.	.	.	.	2r	.	4f#/|<	.	4a'/	.	.	.	.	.	.	.	.	.	.	.	.	.	.	.	.	.	.	2r	.	2r	.	2r	.	2r	.	4ff#\|>	.	4aa\|>	.	2r	.
!	!	!	!	!	!	!	!	!	!	!	!	!	!	!	!	!	!	!	!	!	!	!	!	!	!	!	!	!	!	!	!	!	!	!	!	!	!	!	!	!	!
.	.	.	.	.	.	.	4d/|<	.	4f#'/	.	.	.	.	.	.	.	.	.	.	.	.	.	.	.	.	.	.	.	.	.	.	.	.	.	.	4dd\|>	.	4ff#\|>	.	.	.
=18	=18	=18	=18	=18	=18	=18	=18	=18	=18	=18	=18	=18	=18	=18	=18	=18	=18	=18	=18	=18	=18	=18	=18	=18	=18	=18	=18	=18	=18	=18	=18	=18	=18	=18	=18	=18	=18	=18	=18	=18	=18
!	!	!	!	!	!	!	!LO:N:vis=4	!	!	!	!	!	!	!	!	!	!	!	!	!	!	!	!	!	!	!	!	!	!	!	!	!	!	!	!	!	!	!	!	!LO:TX:b:t=Dolce	!
2A\	.	.	1.r	.	2G/	.	(4.c#/	.	(4.e/	.	.	.	.	.	.	.	.	.	.	.	.	.	1.r	1.r	.	1.r	.	2a/	.	2a/	.	2AA/	.	2AA/	.	4.cc#\	.	4.ee\	.	4.eee\	.
.	.	.	.	.	.	.	8A/)	.	8d/)	.	.	.	.	.	.	.	.	.	.	.	.	.	.	.	.	.	.	.	.	.	.	.	.	.	.	8b\	.	8dd\	.	8ddd\	.
!	!	!	!	!	!	!	!	!	!LO:LB:g=original	!	!	!	!	!	!	!	!	!	!	!	!	!	!	!	!	!	!	!	!	!	!	!	!	!	!	!	!	!	!	!	!
2r	.	.	.	.	2r	.	4A/	.	4c#'/	.	.	.	.	.	.	.	.	.	.	.	.	.	.	.	.	.	.	2r	.	2r	.	2r	.	2r	.	4a\	.	4cc#\	.	4ccc#\	.
.	.	.	.	.	.	.	4B/	.	4d'/	.	.	.	.	.	.	.	.	.	.	.	.	.	.	.	.	.	.	.	.	.	.	.	.	.	.	4b\	.	4dd\	.	4ddd\	.
2AA/	.	.	.	.	2A/	.	4c#/	.	4e'/	.	.	.	.	.	.	.	.	.	.	.	.	.	.	.	.	.	.	2r	.	2r	.	2AA/	.	2AA/	.	4cc#\	.	4ee\	.	4eee\	.
.	.	.	.	.	.	.	4d/	.	4f#'/	.	.	.	.	.	.	.	.	.	.	.	.	.	.	.	.	.	.	.	.	.	.	.	.	.	.	4dd\	.	4ff#\	.	4fff#\	.
=19	=19	=19	=19	=19	=19	=19	=19	=19	=19	=19	=19	=19	=19	=19	=19	=19	=19	=19	=19	=19	=19	=19	=19	=19	=19	=19	=19	=19	=19	=19	=19	=19	=19	=19	=19	=19	=19	=19	=19	=19	=19
.	.	.	.	.	.	.	.	.	8qqe/	.	.	.	.	.	.	.	.	.	.	.	.	.	.	.	.	.	.	.	.	.	.	.	.	.	.	8qqcc#/	.	8qqee/	.	8qqeee/	.
!LO:LB:g=original	!	!	!	!	!	!	!	!	!	!	!	!	!	!	!	!	!	!	!	!	!	!	!	!	!	!	!	!	!	!	!	!	!	!	!	!	!	!	!	!	!
2E\	.	.	2r	.	2E/	.	2B/	.	2d/	.	.	.	.	.	.	.	.	.	.	.	.	.	1.r	1.r	.	1.r	.	1.r	.	1.r	.	2E\	.	2E\	.	2b\	.	2dd\	.	2ddd\	.
2AA/	.	.	2r	.	2A/	.	2A/	.	2c#/	.	.	.	.	.	.	.	.	.	.	.	.	.	.	.	.	.	.	.	.	.	.	2AA/	.	2AA/	.	2a\	.	2cc#\	.	2ccc#\	.
2r	.	.	2a\	.	2c#/	.	4r	.	4r	.	.	.	.	.	.	.	.	.	.	.	.	.	.	.	.	.	.	.	.	.	.	2C#/	.	2C#/	.	2r	.	2r	.	4r	.
.	.	.	.	.	.	.	(8cc#\L	.	(8ee\L	.	.	.	.	.	.	.	.	.	.	.	.	.	.	.	.	.	.	.	.	.	.	.	.	.	.	.	.	.	.	(8eee\L	.
.	.	.	.	.	.	.	8a\J)	.	8cc#\J)	.	.	.	.	.	.	.	.	.	.	.	.	.	.	.	.	.	.	.	.	.	.	.	.	.	.	.	.	.	.	8ccc#\J)	.
=20	=20	=20	=20	=20	=20	=20	=20	=20	=20	=20	=20	=20	=20	=20	=20	=20	=20	=20	=20	=20	=20	=20	=20	=20	=20	=20	=20	=20	=20	=20	=20	=20	=20	=20	=20	=20	=20	=20	=20	=20	=20
!LO:TX:t=org&colon;:b	!	!	!	!	!LO:LB:g=original	!	!	!	!	!	!	!	!	!	!	!	!	!	!	!	!	!	!	!	!	!	!	!	!	!	!	!	!	!	!	!	!	!	!	!	!
2D\	x 6	.	4b\	.	(4d\	.	4r	.	4r	.	00.r	.	.	00.r	.	.	0.r	.	.	0.r	.	.	1.r	1.r	.	1.r	.	2dd\	.	2ff#\	.	2D\	.	2D\	.	4b/	.	4dd\	.	4bb\	.
.	.	.	4d\	.	4b\)	.	8f#/L	.	(8dd\L	.	.	.	.	.	.	.	.	.	.	.	.	.	.	.	.	.	.	.	.	.	.	.	.	.	.	4r	.	4r	.	(8ddd\L	.
.	.	.	.	.	.	.	8d/J	.	8b\J)	.	.	.	.	.	.	.	.	.	.	.	.	.	.	.	.	.	.	.	.	.	.	.	.	.	.	.	.	.	.	8bb\J)	.
2E\	x 4	.	2c#/	.	2a\	.	4r	.	4r	.	.	.	.	.	.	.	.	.	.	.	.	.	.	.	.	.	.	2ee\	.	2ee\	.	2E\	.	2E\	.	4a/	.	4cc#\	.	4aa\	.
.	x 3	.	.	.	.	.	8e/L	.	8cc#\L	.	.	.	.	.	.	.	.	.	.	.	.	.	.	.	.	.	.	.	.	.	.	.	.	.	.	4r	.	4r	.	(8ccc#\L	.
.	.	.	.	.	.	.	8c#/J	.	8a\J	.	.	.	.	.	.	.	.	.	.	.	.	.	.	.	.	.	.	.	.	.	.	.	.	.	.	.	.	.	.	8aa\J)	.
2EE/	.	.	2B/	.	2g#X\	.	4r	.	4r	.	.	.	.	.	.	.	.	.	.	.	.	.	.	.	.	.	.	2ee\	.	2ee\	.	2EE/	.	2EE/	.	4g#X/	.	4b\	.	4gg#X\	.
.	.	.	.	.	.	.	8d/L	.	(8b/L	.	.	.	.	.	.	.	.	.	.	.	.	.	.	.	.	.	.	.	.	.	.	.	.	.	.	4r	.	4r	.	(8bb\L	.
.	.	.	.	.	.	.	8B/J	.	8g#X/J)	.	.	.	.	.	.	.	.	.	.	.	.	.	.	.	.	.	.	.	.	.	.	.	.	.	.	.	.	.	.	8gg#\J)	.
=21	=21	=21	=21	=21	=21	=21	=21	=21	=21	=21	=21	=21	=21	=21	=21	=21	=21	=21	=21	=21	=21	=21	=21	=21	=21	=21	=21	=21	=21	=21	=21	=21	=21	=21	=21	=21	=21	=21	=21	=21	=21
!	!	!	!	!	!	!	!LO:SIC:v:s=1G#	!	!LO:SIC:v:s=1g#	!	!	!	!	!	!	!	!	!	!	!	!	!	!	!	!	!	!	!	!	!LO:LB:g=original	!	!	!	!	!	!	!	!	!	!LO:SIC:v:s=1gg#	!
2A\	.	.	2A/	.	1e	.	1G	.	1g	.	.	.	.	.	.	.	.	.	.	.	.	.	1.r	1.r	.	1.r	.	1a	.	2ee\	.	2A\	.	2A\	.	2g#X/	.	(2b/	.	1gg	.
!	!	!	!	!	!	!	!	!	!	!	!	!	!	!	!	!	!	!	!	!	!	!	!	!	!	!	!	!	!	!	!	!	!	!LO:LB:g=original	!	!	!	!	!	!	!
2E\	.	.	2e\	.	.	.	.	.	.	.	.	.	.	.	.	.	.	.	.	.	.	.	.	.	.	.	.	.	.	1ee	.	2E\	.	2E\	.	2a/	.	2r	.	.	.
2AA/	.	.	2A/	.	2e\	.	2A/	.	2a/	.	.	.	.	.	.	.	.	.	.	.	.	.	.	.	.	.	.	2ee\	.	.	.	2AA/	.	2AA/	.	2r	.	2a/)	.	2aa\	.
=22	=22	=22	=22	=22	=22	=22	=22	=22	=22	=22	=22	=22	=22	=22	=22	=22	=22	=22	=22	=22	=22	=22	=22	=22	=22	=22	=22	=22	=22	=22	=22	=22	=22	=22	=22	=22	=22	=22	=22	=22	=22
!	!	!LO:DY:a:t=Piano	!	!LO:DY:a:t=	!	!	!	!LO:p&colon;DY:t=	!	!LO:DY:t=pia&colon;	!	!	!	!	!	!	!LO:TX:a:t=dolce	!	!	!LO:TX:a:t=dolce	!	!	!	!	!	!	!	!LO:TX:a:t=2	!	!LO:TX:a:t=2	!	!	!LO:DY:a:t=Piano	!	!LO:DY:a:t=Piano	!LO:TX:a:t=9.	!	!LO:TX:a:t=9.	!	!LO:TX:a:t=4	!
2AA/	.	p	2A/	p	1e	p	1a	p	1cc#	p	.	.	.	.	.	.	1a	A-	.	1cc#	A-	.	1.r	1.r	.	1.r	.	0.r	.	0.r	.	2A\	p	2A\	p	00.r	.	00.r	.	00.r	.
2C#\	.	.	2c#/	.	.	.	.	.	.	.	.	.	.	.	.	.	.	.	.	.	.	.	.	.	.	.	.	.	.	.	.	2AA/	.	2AA/	.	.	.	.	.	.	.
!	!	!	!	!	!	!	!LO:TX:b:t=Vox	!	!	!	!	!	!	!	!	!	!	!	!	!	!	!	!	!	!	!	!	!	!	!	!	!	!	!	!	!	!	!	!	!	!
2E\	.	.	2d\	.	2g#X\	.	2b\	.	2dd\	.	.	.	.	.	.	.	2b\	-gnus	.	2dd\	-gnus	.	.	.	.	.	.	.	.	.	.	2E\	.	2E\	.	.	.	.	.	.	.
=23	=23	=23	=23	=23	=23	=23	=23	=23	=23	=23	=23	=23	=23	=23	=23	=23	=23	=23	=23	=23	=23	=23	=23	=23	=23	=23	=23	=23	=23	=23	=23	=23	=23	=23	=23	=23	=23	=23	=23	=23	=23
!	!	!	!	!	!	!	!	!	!	!	!	!	!	!	!	!	!LO:LB:g=original	!	!	!	!	!	!	!	!	!	!	!	!	!	!	!	!	!	!	!	!	!	!	!	!
2A\|>	.	.	2a\	.	2a\	.	2cc#\	.	2ee\	.	.	.	.	.	.	.	2cc#\	de-	.	2ee\	de-	.	1.r	1.r	.	1.r	.	.	.	.	.	2A\	.	2A\	.	.	.	.	.	.	.
2AA/	.	.	2A/	.	2A/	.	2a\	.	2cc#\	.	.	.	.	.	.	.	2a\	-i	.	2cc#\	-i	.	.	.	.	.	.	.	.	.	.	2AA/	.	2AA/	.	.	.	.	.	.	.
2r	.	.	2r	.	2r	.	4b\	.	(4dd\	.	.	.	.	.	.	.	(4b\	qui	.	(4dd\	qui	.	.	.	.	.	.	.	.	.	.	2r	.	2r	.	.	.	.	.	.	.
=-	=-	=-	=-	=-	=-	=-	=-	=-	=-	=-	=-	=-	=-	=-	=-	=-	=-	=-	=-	=!|:	=	=	=-	=-	=-	=-	=-	=-	=-	=-	=-	=-	=-	=-	=-	=-	=-	=-	=-	=-	=-
.	.	.	.	.	.	.	4cc#\	.	4ee\)	.	.	.	.	.	.	.	4cc#\)	.	.	4ee\)	.	.	.	.	.	.	.	.	.	.	.	.	.	.	.	.	.	.	.	.	.
=24	=24	=24	=24	=24	=24	=24	=24	=24	=24	=24	=24	=24	=24	=24	=24	=24	=24	=24	=24	=24	=24	=24	=24	=24	=24	=24	=24	=24	=24	=24	=24	=24	=24	=24	=24	=24	=24	=24	=24	=24	=24
!	!	!	!	!	!	!	!LO:LB:g=original	!	!	!	!	!	!	!	!	!	!	!	!	!	!	!	!	!	!	!	!	!	!	!	!	!	!	!	!	!	!	!	!	!	!
2D\	x 5	.	2d\	.	2a\	.	2dd\	.	2ff#\	.	00.r	.	.	00.r	.	.	2dd\	tol-	.	2ff#\	tol-	.	1.r	1.r	.	1.r	.	2r	.	2r	.	2D/	.	2D/	.	.	.	.	.	.	.
2AA/	x 3	.	2A/	.	2a\	.	2cc#\	.	2ee\	.	.	.	.	.	.	.	2cc#\	-lis	.	2ee\	-lis	.	.	.	.	.	.	4r	.	4r	.	2AA/	.	2AA/	.	.	.	.	.	.	.
!	!	!	!	!	!	!	!	!	!	!	!	!	!	!	!	!	!	!	!	!	!	!	!	!	!	!	!	!LO:TX:a:t=Solo	!LO:DY:t=p&colon;:rj	!LO:TX:a:t=Solo	!LO:DY:t=piano	!	!	!	!	!	!	!	!	!	!
.	.	.	.	.	.	.	.	.	.	.	.	.	.	.	.	.	.	.	.	.	.	.	.	.	.	.	.	4A/	p	4a/	p	.	.	.	.	.	.	.	.	.	.
!	!	!	!	!	!	!	!	!	!	!	!	!	!	!	!	!	!	!	!	!LO:N:vis=4	!	!	!	!	!	!	!	!	!	!	!	!	!	!	!	!	!	!	!	!	!
2r	.	.	4a\	.	2r	.	4r	.	4r	.	.	.	.	.	.	.	4r	.	.	8r	.	.	.	.	.	.	.	4A/	.	4a/	.	2r	.	2r	.	.	.	.	.	.	.
!	!	!	!	!	!	!	!	!	!	!	!	!	!	!	!	!	!	!	!	!LO:N:vis=4	!	!	!	!	!	!	!	!	!	!	!	!	!	!	!	!	!	!	!	!	!
.	.	.	.	.	.	.	.	.	.	.	.	.	.	.	.	.	.	.	.	8r	.	.	.	.	.	.	.	.	.	.	.	.	.	.	.	.	.	.	.	.	.
.	.	.	.	.	.	.	.	.	.	.	.	.	.	.	.	.	.	.	.	.	.	.	.	.	.	.	.	.	.	.	.	.	.	.	.	.	.	.	.	.	.
=-	=-	=-	=-	=-	=-	=-	=-	=-	=-	=-	=-	=-	=-	=-	=-	=-	=-	=-	=-	=:|!	=	=	=-	=-	=-	=-	=-	=-	=-	=-	=-	=-	=-	=-	=-	=-	=-	=-	=-	=-	=-
.	.	.	4a\	.	.	.	4cc#\	.	4ee\	.	.	.	.	.	.	.	4cc#\	pec-	.	4ee\yy	pec-	.	.	.	.	.	.	4A/	.	4a/	.	.	.	.	.	.	.	.	.	.	.
=25	=25	=25	=25	=25	=25	=25	=25	=25	=25	=25	=25	=25	=25	=25	=25	=25	=25	=25	=25	=25-	=25-	=25-	=25	=25	=25	=25	=25	=25	=25	=25	=25	=25	=25	=25	=25	=25	=25	=25	=25	=25	=25
!	!	!	!LO:LB:g=original	!	!	!	!	!	!	!	!	!	!	!	!	!	!	!	!	!LO:TX:t=P:problem:takt zapisany repetycją	!	!	!	!	!	!	!	!	!	!	!	!LO:LB:g=original	!	!	!	!	!	!	!	!	!
2D\	.	.	2d\	.	2a\	.	2dd\	.	2ff#\	.	.	.	.	.	.	.	2dd\	-ca-	.	2ff#\yy	-ca-	.	1.r	1.r	.	1.r	.	2r	.	2r	.	2D/	.	2D/	.	.	.	.	.	.	.
2AA/	.	.	2A/	.	2a\	.	2cc#\	.	2ee\	.	.	.	.	.	.	.	2cc#\	-ta	.	2ee\yy	-ta	.	.	.	.	.	.	4r	.	4r	.	2AA/	.	2AA/	.	.	.	.	.	.	.
.	.	.	.	.	.	.	.	.	.	.	.	.	.	.	.	.	.	.	.	.	.	.	.	.	.	.	.	4A/	.	4a/ 4cc#	.	.	.	.	.	.	.	.	.	.	.
2r	.	.	4a\	.	2r	.	2r	.	2r	.	.	.	.	.	.	.	2r	.	.	4ryy	.	.	.	.	.	.	.	4A/	.	4a/ 4cc#	.	2r	.	2r	.	.	.	.	.	.	.
.	.	.	4a\	.	.	.	.	.	.	.	.	.	.	.	.	.	.	.	.	4ryy	.	.	.	.	.	.	.	4A/	.	4a/	.	.	.	.	.	.	.	.	.	.	.
=26	=26	=26	=26	=26	=26	=26	=26	=26	=26	=26	=26	=26	=26	=26	=26	=26	=26	=26	=26	=26	=26	=26	=26	=26	=26	=26	=26	=26	=26	=26	=26	=26	=26	=26	=26	=26	=26	=26	=26	=26	=26
!	!	!	!	!	!	!	!	!	!	!	!	!	!	!	!	!	!	!	!	!	!	!	!	!	!	!	!	!LO:LB:g=original	!	!	!	!	!	!	!	!	!	!	!	!	!
!	!	!	!	!	!	!	!	!	!LO:LB:g=original	!	!	!	!	!	!	!	!	!	!	!	!	!	!	!	!	!	!	!LO:TX:a:t=4	!	!LO:TX:a:t=4	!	!	!	!	!	!	!	!	!	!	!LO:DY:t=pia&colon;
2E\	.	.	2g#X\	.	2g#X\	.	2b\	.	2dd\	.	.	.	.	.	.	.	2b\	qui	.	2dd\	pec-	.	1.r	1.r	.	1.r	.	00.r	.	00.r	.	2E\	.	2E\	.	00.r	.	00.r	.	2ddd\	p
2G#X\	.	.	2e\	.	2e\	.	(4b\	.	(4dd\	.	.	.	.	.	.	.	(4b\	tol-	.	(4dd\	-ca-	.	.	.	.	.	.	.	.	.	.	2G#X\	.	2G#X\	.	.	.	.	.	(4ddd\	.
.	.	.	.	.	.	.	4g#X/)	.	4b\)	.	.	.	.	.	.	.	4g#X\)	.	.	4b\)	.	.	.	.	.	.	.	.	.	.	.	.	.	.	.	.	.	.	.	4bb\)	.
2A\	.	.	4a\	.	4c#\	.	4a/	.	(4cc#\	.	.	.	.	.	.	.	4a\	-lis	.	4cc#\	-ta	.	.	.	.	.	.	.	.	.	.	2A\	.	2A\	.	.	.	.	.	(4ccc#\	.
.	.	.	4A/	.	4a\	.	4c#/	.	4ee\)	.	.	.	.	.	.	.	4c#/	pec-	.	4ee\	.	.	.	.	.	.	.	.	.	.	.	.	.	.	.	.	.	.	.	4eee\)	.
=27	=27	=27	=27	=27	=27	=27	=27	=27	=27	=27	=27	=27	=27	=27	=27	=27	=27	=27	=27	=27	=27	=27	=27	=27	=27	=27	=27	=27	=27	=27	=27	=27	=27	=27	=27	=27	=27	=27	=27	=27	=27
!	!	!	!	!	!	!	!	!	!	!	!	!	!	!	!	!	!	!	!	!	!	!	!	!	!	!	!	!	!	!	!	!	!	!	!	!	!	!	!	!LO:LB:g=original	!
2E\	.	.	2e\	.	1d	.	2B/	.	(4a/	.	.	.	.	.	.	.	2B/	-ca-	.	(4a\	pec-	.	1.r	1.r	.	1.r	.	.	.	.	.	2E\	.	2E\	.	.	.	.	.	(4aa\	.
!	!	!	!	!	!	!	!	!	!LO:SIC:v:s=4g#/)	!	!	!	!	!	!	!	!	!	!	!	!	!	!	!	!	!	!	!	!	!	!	!	!	!	!	!	!	!	!	!	!
.	.	.	.	.	.	.	.	.	4g/)	.	.	.	.	.	.	.	.	.	.	4g#X\)	.	.	.	.	.	.	.	.	.	.	.	.	.	.	.	.	.	.	.	4gg#X\)	.
2D\	.	.	2d\	.	.	.	(4d/	.	(4b/	.	.	.	.	.	.	.	4d/	.	.	(4b\	-ca-	.	.	.	.	.	.	.	.	.	.	2D\	.	2D\	.	.	.	.	.	(4bb\	.
!LO:LB:g=original	!	!	!	!	!	!	!	!	!LO:SIC:v:s=4g#/)	!	!	!	!	!	!	!	!	!	!	!	!	!	!	!	!	!	!	!	!	!	!	!	!	!	!	!	!	!	!	!	!
.	.	.	.	.	.	.	4B/)	.	4g/)	.	.	.	.	.	.	.	4B/	.	.	4g#\)	.	.	.	.	.	.	.	.	.	.	.	.	.	.	.	.	.	.	.	4gg#\)	.
2C#/	.	.	2c#\	.	2e\	.	2c#/	.	(4a/	.	.	.	.	.	.	.	2c#/	-ta	.	(4a\	-ta	.	.	.	.	.	.	.	.	.	.	2C#\	.	2C#\	.	.	.	.	.	(4aa\	.
.	.	.	.	.	.	.	.	.	4cc#/)	.	.	.	.	.	.	.	.	.	.	4cc#\)	.	.	.	.	.	.	.	.	.	.	.	.	.	.	.	.	.	.	.	4ccc#\)	.
=28	=28	=28	=28	=28	=28	=28	=28	=28	=28	=28	=28	=28	=28	=28	=28	=28	=28	=28	=28	=28	=28	=28	=28	=28	=28	=28	=28	=28	=28	=28	=28	=28	=28	=28	=28	=28	=28	=28	=28	=28	=28
2r	.	.	2d\	.	2e\	.	2e/	.	2e/	.	0.r	.	.	0.r	.	.	2e\	pec-	.	2e/	pec-	.	1.r	1.r	.	1.r	.	.	.	.	.	2E\	.	2E\	.	.	.	.	.	2ee\	.
!	!	!LO:DY:t=Forte	!	!	!	!	!	!	!	!	!	!	!	!	!	!	!	!	!	!	!	!	!	!	!	!	!	!	!	!	!	!	!	!	!	!	!	!	!	!	!
2G#X\	5 3	f	2G#X/	.	1e	.	4cc#\	.	(4ee\	.	.	.	.	.	.	.	(4cc#\	-ca-	.	(4ee\	-ca-	.	.	.	.	.	.	.	.	.	.	2G#X\	.	2G#X\	.	.	.	.	.	(4eee\	.
.	.	.	.	.	.	.	4b\	.	4dd\)	.	.	.	.	.	.	.	4b\)	.	.	4dd\)	.	.	.	.	.	.	.	.	.	.	.	.	.	.	.	.	.	.	.	4ddd\)	.
2A\	x 3	.	2A/	.	.	.	4b\	.	(4dd\	.	.	.	.	.	.	.	4b\	-ta	.	(4dd\	-ta	.	.	.	.	.	.	.	.	.	.	2A\	.	2A\	.	.	.	.	.	(4ddd\	.
.	.	.	.	.	.	.	4a\	.	4cc#\)	.	.	.	.	.	.	.	4a\	.	.	4cc#\)	.	.	.	.	.	.	.	.	.	.	.	.	.	.	.	.	.	.	.	4ccc#\)	.
=29	=29	=29	=29	=29	=29	=29	=29	=29	=29	=29	=29	=29	=29	=29	=29	=29	=29	=29	=29	=29	=29	=29	=29	=29	=29	=29	=29	=29	=29	=29	=29	=29	=29	=29	=29	=29	=29	=29	=29	=29	=29
2E\	6 4	.	2e\	.	1e	.	1a	.	1cc#	.	.	.	.	.	.	.	1a	mun-	.	1cc#	mun-	.	1.r	1.r	.	1.r	.	.	.	.	.	2E\	.	2E\	.	.	.	.	.	1ccc#	.
2BB/	_ _	.	2B/	.	.	.	.	.	.	.	.	.	.	.	.	.	.	.	.	.	.	.	.	.	.	.	.	.	.	.	.	2BB/	.	2BB/	.	.	.	.	.	.	.
2EE/	x #	.	2E/	.	2e\	.	2g#X/	.	2b\	.	.	.	.	.	.	.	2g#X\	-di	.	2b\	-di	.	.	.	.	.	.	.	.	.	.	2EE/	.	2EE/	.	.	.	.	.	2bb\	.
=30	=30	=30	=30	=30	=30	=30	=30	=30	=30	=30	=30	=30	=30	=30	=30	=30	=30	=30	=30	=30	=30	=30	=30	=30	=30	=30	=30	=30	=30	=30	=30	=30	=30	=30	=30	=30	=30	=30	=30	=30	=30
!	!	!	!	!LO:DY:a:t=for	!LO:PB:g=original	!LO:DY:t=f&colon;	!LO:TX:a:t=i	!	!LO:TX:a:t=1	!	!	!	!LO:DY:a:t=for	!	!	!LO:DY:a:t=fort	!	!	!LO:DY:a:t=for&colon;	!	!	!	!	!	!	!	!	!	!LO:DY:t=for	!	!LO:DY:t=for	!	!	!	!	!	!	!	!	!LO:TX:a:t=1	!
1.r	.	.	2a\	f	2a\	f	1.r	.	1.r	.	1A	Mi-	f	1A	Mi-	f	1a	mi-	f	1a	mi-	.	1.r	1.r	.	1.r	.	2a/	f	2a/	f	1.r	.	1.r	.	1.r	.	1.r	.	1.r	.
.	.	.	2a\	.	2a\	.	.	.	.	.	.	.	.	.	.	.	.	.	.	.	.	.	.	.	.	.	.	2a/	.	2a/	.	.	.	.	.	.	.	.	.	.	.
!	!	!	!	!	!	!	!	!	!	!	!	!	!	!	!	!	!	!	!	!	!	!	!	!	!	!	!	!	!	!	!	!	!	!	!	!	!	!	!	!	!
.	.	.	2a\	.	2a\	.	.	.	.	.	2A\	-ſe-	.	2A/	-se-	.	2a\	-se-	.	2a\	-se-	.	.	.	.	.	.	2a/	.	2a/	.	.	.	.	.	.	.	.	.	.	.
!	!	!	!	!	!	!	!	!	!	!	!	!	!	!	!	!	!	!	!	!LO:TX:b:t=V.Cito.:rj	!	!	!	!	!	!	!	!	!	!	!	!	!	!	!	!	!	!	!	!	!
=31!|:	=31	=31	=31	=31	=31	=31	=31	=31	=31	=31	=31	=31	=31	=31	=31	=31	=31	=31	=31	=31	=31	=31	=31	=31	=31	=31	=31	=31	=31	=31	=31	=31	=31	=31!|:	=31	=31	=31	=31	=31	=31	=31
!LO:TX:a:t=Tutti	!	!	!	!	!	!	!	!	!	!	!	!	!	!LO:LB:g=original	!	!	!	!	!	!LO:PB:g=original	!	!	!	!	!	!	!	!	!	!	!	!	!LO:DY:a:t=Forte.	!LO:LB:g=original	!	!	!LO:DY:t=for	!	!LO:DY:t=for.	!	!LO:DY:t=for
2E\	.	.	(4e\	.	(4gn\	.	4r	.	4r	.	1.A	-re-	.	1.A	-re-	.	1.a	-re-	.	1.a	-re-	.	1.r	1.r	.	1.r	.	1a	.	1ee	.	2E\	f	2D\	.	1.ee	f	1.ggn	f	1.aaT	f
!	!	!	!	!	!	!	!	!LO:DY:t=for:rj	!	!LO:DY:t=for	!	!	!	!	!	!	!	!	!	!	!	!	!	!	!	!	!	!	!	!	!	!	!	!	!	!	!	!	!	!	!
.	.	.	4gn\)	.	4a\)	.	4ee\	f	(4ggn\	f	.	.	.	.	.	.	.	.	.	.	.	.	.	.	.	.	.	.	.	.	.	.	.	.	.	.	.	.	.	.	.
!	!	!	!	!	!	!	!	!	!	!	!	!	!	!	!	!	!	!	!	!	!	!	!	!	!	!	!	!	!	!	!	!	!	!	!LO:DY:a:t=	!	!	!	!	!	!
2A\	x #	.	(4e\	.	(4g\	.	4dd\	.	4ff#\	.	.	.	.	.	.	.	.	.	.	.	.	.	.	.	.	.	.	.	.	.	.	2A\	.	2A\	f	.	.	.	.	.	.
.	x _	.	4g\)	.	4a\)	.	4gn/	.	4ee\	.	.	.	.	.	.	.	.	.	.	.	.	.	.	.	.	.	.	.	.	.	.	.	.	.	.	.	.	.	.	.	.
2Gn\	.	.	(4e\	.	(4g\	.	4f#/	.	4dd\	.	.	.	.	.	.	.	.	.	.	.	.	.	.	.	.	.	.	2r	.	2r	.	2Gn\	.	2Gn\	.	.	.	.	.	.	.
.	x x	.	4g\)	.	4a\)	.	4e/	.	4cc#\)	.	.	.	.	.	.	.	.	.	.	.	.	.	.	.	.	.	.	.	.	.	.	.	.	.	.	.	.	.	.	.	.
=32	=32	=32	=32	=32	=32	=32	=32	=32	=32	=32	=32	=32	=32	=32	=32	=32	=32	=32	=32	=32	=32	=32	=32	=32	=32	=32	=32	=32	=32	=32	=32	=32	=32	=32	=32	=32	=32	=32	=32	=32	=32
2F#\	x 6	.	(4d\	.	(4f#\	.	2f#/	.	(4dd\	.	1.A	-re	.	1.A	-re	.	1.a	-re	.	1.a	-re	.	1.r	1.r	.	1.r	.	2f#/	.	2dd\	.	2F#\	.	2F#\	.	2dd\	.	2ff#\	.	2aa\	.
.	.	.	4f#\)	.	4a\)	.	.	.	4a'\)	.	.	.	.	.	.	.	.	.	.	.	.	.	.	.	.	.	.	.	.	.	.	.	.	.	.	.	.	.	.	.	.
2C#/	x 3	.	(4c#\	.	(4e\	.	2cc#\	.	(4ee\	.	.	.	.	.	.	.	.	.	.	.	.	.	.	.	.	.	.	2a/	.	2ee\	.	2C#/	.	2C#/	.	2cc#\	.	2ee\	.	2ccc#\	.
.	.	.	4e\)	.	4a\)	.	.	.	4a'\)	.	.	.	.	.	.	.	.	.	.	.	.	.	.	.	.	.	.	.	.	.	.	.	.	.	.	.	.	.	.	.	.
2D\	x 3	.	(4d\	.	(4f#\	.	2dd\	.	(4ff#\	.	.	.	.	.	.	.	.	.	.	.	.	.	.	.	.	.	.	2dd\	.	2ff#\	.	2D\	.	2D/	.	2dd\	.	2ff#\	.	2ddd\	.
.	.	.	4f#\)	.	4a\)	.	.	.	4a'\)	.	.	.	.	.	.	.	.	.	.	.	.	.	.	.	.	.	.	.	.	.	.	.	.	.	.	.	.	.	.	.	.
=33:|!	=33	=33	=33	=33	=33	=33	=33	=33	=33	=33	=33	=33	=33	=33	=33	=33	=33	=33	=33	=33	=33	=33	=33	=33	=33	=33	=33	=33	=33	=33	=33	=33	=33	=33:|!	=33	=33	=33	=33	=33	=33	=33
!LO:TX:t=P:problem:repetycja 2 taktów	!	!	!	!	!	!	!	!	!	!	!	!	!	!	!	!	!LO:PB:g=original	!	!	!	!	!	!	!	!	!	!	!	!	!	!	!	!	!LO:TX:t=P:problem:fragment zapisany repetycją	!	!	!	!	!	!	!
2E\yy	.	.	(4c#\	.	(4g\	.	2ee\	.	4aa\|>	.	1.A	no-	.	1.A	no-	.	1.a	no-	.	1.a	no-	.	1.r	1.r	.	1.r	.	1.a	.	1.ee	.	2E\	.	2E\yy	.	1.ee	.	1.gg	.	1.aa	.
.	.	.	4e\)	.	4a\)	.	.	.	(4gg\	.	.	.	.	.	.	.	.	.	.	.	.	.	.	.	.	.	.	.	.	.	.	.	.	.	.	.	.	.	.	.	.
2A\yy	.	.	(4c#\	.	(4g\	.	4dd\	.	4ff#\	.	.	.	.	.	.	.	.	.	.	.	.	.	.	.	.	.	.	.	.	.	.	2A\	.	2A\yy	.	.	.	.	.	.	.
.	.	.	4e\)	.	4a\)	.	4g/	.	4ee\	.	.	.	.	.	.	.	.	.	.	.	.	.	.	.	.	.	.	.	.	.	.	.	.	.	.	.	.	.	.	.	.
2Gn\yy	.	.	(4c#\	.	(4g\	.	4f#/	.	4dd\)	.	.	.	.	.	.	.	.	.	.	.	.	.	.	.	.	.	.	.	.	.	.	2G\	.	2Gn\yy	.	.	.	.	.	.	.
.	.	.	4e\)	.	4a\)	.	4e/	.	4cc#\	.	.	.	.	.	.	.	.	.	.	.	.	.	.	.	.	.	.	.	.	.	.	.	.	.	.	.	.	.	.	.	.
=34	=34	=34	=34	=34	=34	=34	=34	=34	=34	=34	=34	=34	=34	=34	=34	=34	=34	=34	=34	=34	=34	=34	=34	=34	=34	=34	=34	=34	=34	=34	=34	=34	=34	=34	=34	=34	=34	=34	=34	=34	=34
!	!	!	!	!	!	!	!	!	!	!	!LO:LB:g=original	!	!	!	!	!	!	!	!	!	!	!	!	!	!	!	!	!	!	!	!	!	!	!	!	!	!	!LO:LB:g=original	!	!	!
2F#\yy	.	.	(4d\	.	(4f#\	.	2f#/	.	(4dd\	.	1.A	-biſ	.	1.A	-bis	.	1.a	-biſ	.	1.a	-bis	.	1.r	1.r	.	1.r	.	2f#/	.	2dd\	.	2F#/	.	2F#\yy	.	2dd\	.	2ff#\	.	2aa\	.
.	.	.	4f#\)	.	4a\)	.	.	.	4a'\)	.	.	.	.	.	.	.	.	.	.	.	.	.	.	.	.	.	.	.	.	.	.	.	.	.	.	.	.	.	.	.	.
2C#/yy	.	.	(4c#\	.	(4e\	.	2cc#\	.	(4ee\	.	.	.	.	.	.	.	.	.	.	.	.	.	.	.	.	.	.	2a/	.	2ee\	.	2C#/	.	2C#/yy	.	2cc#\	.	2ee\	.	2ccc#\	.
.	.	.	4e\)	.	4a\)	.	.	.	4a'\)	.	.	.	.	.	.	.	.	.	.	.	.	.	.	.	.	.	.	.	.	.	.	.	.	.	.	.	.	.	.	.	.
!	!	!	!	!	!	!	!	!	!	!	!	!	!	!	!	!	!	!	!	!	!	!	!	!	!	!	!	!	!	!	!	!LO:LB:g=original	!	!	!	!	!	!	!	!	!
2D\yy	.	.	(4d\	.	(4f#\	.	2dd\	.	(4ff#\	.	.	.	.	.	.	.	.	.	.	.	.	.	.	.	.	.	.	2dd\	.	2ff#\	.	2D\	.	2D/yy	.	2dd\	.	2ff#\	.	2ddd\	.
.	.	.	4f#\)	.	4a\)	.	.	.	4a'\)	.	.	.	.	.	.	.	.	.	.	.	.	.	.	.	.	.	.	.	.	.	.	.	.	.	.	.	.	.	.	.	.
=35	=35	=35	=35	=35	=35	=35	=35	=35	=35	=35	=35	=35	=35	=35	=35	=35	=35	=35	=35	=35	=35	=35	=35	=35	=35	=35	=35	=35	=35	=35	=35	=35	=35	=35	=35	=35	=35	=35	=35	=35	=35
!	!	!	!	!	!	!	!LO:LB:g=original	!	!LO:LB:g=original	!	!	!	!	!	!	!	!	!	!	!	!	!	!	!	!	!	!	!	!	!	!	!	!	!	!	!	!	!	!	!	!
2E\	.	.	(4c#\	.	(4g\	.	2ee\	.	4aa\|>	.	1A	mi-	.	1A	Mi-	.	1a	mi-	.	1a	mi-	.	1.r	1.r	.	1.r	.	1.a	.	1.ee	.	2E\	.	2E\	.	1.ee	.	1.gg	.	1.aa	.
.	.	.	4e\)	.	4a\)	.	.	.	(4gg\	.	.	.	.	.	.	.	.	.	.	.	.	.	.	.	.	.	.	.	.	.	.	.	.	.	.	.	.	.	.	.	.
2A\	.	.	(4c#\	.	(4g\	.	4dd\	.	4ff#\	.	.	.	.	.	.	.	.	.	.	.	.	.	.	.	.	.	.	.	.	.	.	2A\	.	2A\	.	.	.	.	.	.	.
.	.	.	4e\)	.	4a\)	.	4g/	.	4ee\	.	.	.	.	.	.	.	.	.	.	.	.	.	.	.	.	.	.	.	.	.	.	.	.	.	.	.	.	.	.	.	.
2G\	.	.	(4c#\	.	(4g\	.	4f#/	.	4dd\)	.	2A\	-ſe-	.	2A/	-se-	.	2a\	-ſe-	.	2a\	-ſe-	.	.	.	.	.	.	.	.	.	.	2G\	.	2G\	.	.	.	.	.	.	.
.	.	.	4e\)	.	4a\)	.	4e/	.	4cc#\	.	.	.	.	.	.	.	.	.	.	.	.	.	.	.	.	.	.	.	.	.	.	.	.	.	.	.	.	.	.	.	.
=36	=36	=36	=36	=36	=36	=36	=36	=36	=36	=36	=36	=36	=36	=36	=36	=36	=36	=36	=36	=36	=36	=36	=36	=36	=36	=36	=36	=36	=36	=36	=36	=36	=36	=36	=36	=36	=36	=36	=36	=36	=36
!	!	!	!	!	!	!	!	!	!	!	!	!	!	!	!	!	!	!	!	!	!	!	!	!	!	!	!	!	!	!	!	!	!	!	!	!LO:LB:g=original	!	!	!	!	!
2F#\	.	.	4d\	.	4f#\	.	2f#/	.	(4dd\	.	2A\	-re-	.	2A/	-re-	.	2f#\	-re-	.	(2dd\	-re-	.	1.r	1.r	.	1.r	.	2f#/	.	2dd\	.	2F#\	.	2F#\	.	2dd\	.	2ff#\	.	2aa\	.
.	.	.	4A/	.	4a\	.	.	.	4a\)	.	.	.	.	.	.	.	.	.	.	.	.	.	.	.	.	.	.	.	.	.	.	.	.	.	.	.	.	.	.	.	.
2C#/	.	.	4c#/	.	4e\	.	4ee\	.	(4gg\	.	2C#/	.	.	2c#/	.	.	2e\	.	.	2gg\)	.	.	.	.	.	.	.	2a/	.	2ee\	.	2C#\	.	2C#/	.	2ee\	.	2gg\	.	2eee\	.
.	.	.	4A/	.	4a\	.	4cc#\	.	4a\)	.	.	.	.	.	.	.	.	.	.	.	.	.	.	.	.	.	.	.	.	.	.	.	.	.	.	.	.	.	.	.	.
4D\	x 3	.	4d\	.	4f#\	.	4dd\	.	4ff#\	.	4D/	.	.	2d\	-re	.	2d\	-re	.	2ff#\	-re	.	.	.	.	.	.	2dd\	.	2ff#\	.	4D\	.	4D\	.	2dd\	.	2ff#\	.	2fff#\	.
4F#\	x 3	.	4f#\	.	4d\	.	4ff#\	.	4aa\	.	4F#/	-re	.	.	.	.	.	.	.	.	.	.	.	.	.	.	.	.	.	.	.	4F#\	.	4F#\	.	.	.	.	.	.	.
=37	=37	=37	=37	=37	=37	=37	=37	=37	=37	=37	=37	=37	=37	=37	=37	=37	=37	=37	=37	=37	=37	=37	=37	=37	=37	=37	=37	=37	=37	=37	=37	=37	=37	=37	=37	=37	=37	=37	=37	=37	=37
2A\	.	.	2a\	.	2a\	.	2dd\	.	2ff#\	.	2A\	no-	.	2d\	no-	.	2a\	no-	.	2ff#\	no-	.	1.r	1.r	.	1.r	.	2dd\	.	2ff#\	.	2A\	.	2A/	.	2dd\	.	2ff#\	.	2fff#\	.
2AA/	.	.	2A/	.	2a\	.	2cc#\	.	2ee\	.	2AA/	-biſ	.	2c#\	-bis	.	2a\	-bis	.	2ee\	-bis	.	.	.	.	.	.	2a/	.	2ee\	.	2AA/	.	2AA/	.	2cc#\	.	2ee\	.	2eee\	.
2r	.	.	2r	.	2r	.	2r	.	2r	.	2r	.	.	2r	.	.	2r	.	.	2r	.	.	.	.	.	.	.	2r	.	2r	.	2r	.	2r	.	2r	.	2r	.	2r	.
=38	=38	=38	=38	=38	=38	=38	=38	=38	=38	=38	=38	=38	=38	=38	=38	=38	=38	=38	=38	=38	=38	=38	=38	=38	=38	=38	=38	=38	=38	=38	=38	=38	=38	=38	=38	=38	=38	=38	=38	=38	=38
*	*	*	*	*	*^	*	*^	*	*^	*	*	*	*	*	*	*	*	*	*	*	*	*	*	*	*	*	*	*	*	*	*	*^	*	*	*	*	*	*	*	*	*
*	*	*	*	*	*	*cue	*	*	*cue	*	*	*cue	*	*	*	*	*	*	*	*	*	*	*	*	*	*	*	*	*	*	*	*	*	*	*	*	*	*	*	*	*	*	*	*	*
!	!	!	!	!	!	!	!	!	!	!	!	!	!	!	!	!	!	!	!	!	!	!	!	!	!	!	!	!	!	!	!	!	!LO:LB:g=original	!	!	!	!	!	!	!	!	!	!	!	!
!LO:LB:g=original	!	!	!	!	!	!	!	!	!	!	!	!	!	!	!	!	!	!	!	!	!	!	!	!	!	!	!	!	!	!	!LO:TX:b:t=dolce	!	!LO:TX:b:t=dolce	!	!	!	!	!	!	!	!	!	!	!	!
!LO:TX:a:t=2.	!	!	!LO:TX:a:t=2	!	!LO:TX:b:t=Fago&colon;	!	!	!LO:TX:a:t=obi.	!	!	!LO:TX:a:t=oboi	!	!	!LO:TX:a:t=2	!	!	!LO:TX:a:t=2.	!	!	!LO:TX:a:t=2.	!	!	!LO:TX:a:t=2.	!	!	!	!	!	!	!	!LO:TX:a:t=Solo	!	!LO:TX:a:t=Solo	!	!LO:TX:a:t=Solo	!	!	!LO:TX:a:t=Solo	!	!LO:TX:t=Solo:b	!LO:DY:t=p&colon;:rj	!LO:TX:b:t=Solo.	!LO:DY:t=p&colon;:rj	!LO:LB:g=original	!
0.r	.	.	0.r	.	1.rBB	2a/	.	1.rA	2cc#/	.	1.rA	2ee/	.	0.r	.	.	0.r	.	.	0.r	.	.	0.r	.	.	1.r	1.r	.	1.r	.	2a/	.	2ee\	.	2A\	2ryy	.	2A\	.	2cc#\	p	2ee\	p	1.aa	.
.	.	.	.	.	.	2f#/	.	.	2dd/	.	.	2ff#/	.	.	.	.	.	.	.	.	.	.	.	.	.	.	.	.	.	.	2dd\	.	2ff#\	.	2F#/	2D\	.	2F#\	.	2dd\	.	2ff#\	.	.	.
.	.	.	.	.	.	2c#/	.	.	2ee/	.	.	2gg/	.	.	.	.	.	.	.	.	.	.	.	.	.	.	.	.	.	.	2a/	.	2ee\	.	2C#/	2ryy	.	2C#/	.	2ee\	.	2gg\	.	.	.
*	*	*	*	*	*	*	*	*	*	*	*	*	*	*	*	*	*	*	*	*	*	*	*	*	*	*	*	*	*	*	*	*	*	*	*v	*v	*	*	*	*	*	*	*	*	*
=39	=39	=39	=39	=39	=39	=39	=39	=39	=39	=39	=39	=39	=39	=39	=39	=39	=39	=39	=39	=39	=39	=39	=39	=39	=39	=39	=39	=39	=39	=39	=39	=39	=39	=39	=39	=39	=39	=39	=39	=39	=39	=39	=39	=39
.	.	.	.	.	1.rGG	2d/	.	1.rF	2dd/	.	1.rF	2ff#/	.	.	.	.	.	.	.	.	.	.	.	.	.	1.r	1.r	.	1.r	.	2f#/	.	2dd\	.	2D/	.	2D/	.	2dd\	.	2ff#\	.	2aa\	.
.	.	.	.	.	.	2A/	.	.	2cc#/	.	.	2ee/	.	.	.	.	.	.	.	.	.	.	.	.	.	.	.	.	.	.	2a/	.	2ee\	.	2AA/	.	2AA/	.	2cc#\	.	2ee\	.	2aa\	.
.	.	.	.	.	.	2rb	.	.	2raa	.	.	2raa	.	.	.	.	.	.	.	.	.	.	.	.	.	.	.	.	.	.	2r	.	2r	.	2r	.	2r	.	2r	.	2r	.	2r	.
*	*	*	*	*	*	*Xcue	*	*	*Xcue	*	*	*Xcue	*	*	*	*	*	*	*	*	*	*	*	*	*	*	*	*	*	*	*	*	*	*	*	*	*	*	*	*	*	*	*	*
*	*	*	*	*	*v	*v	*	*	*	*	*v	*v	*	*	*	*	*	*	*	*	*	*	*	*	*	*	*	*	*	*	*	*	*	*	*	*	*	*	*	*	*	*	*	*
*	*	*	*	*	*	*	*v	*v	*	*	*	*	*	*	*	*	*	*	*	*	*	*	*	*	*	*	*	*	*	*	*	*	*	*	*	*	*	*	*	*	*	*
=40	=40	=40	=40	=40	=40	=40	=40	=40	=40	=40	=40	=40	=40	=40	=40	=40	=40	=40	=40	=40	=40	=40	=40	=40	=40	=40	=40	=40	=40	=40	=40	=40	=40	=40	=40	=40	=40	=40	=40	=40	=40
!	!	!	!	!	!	!	!	!LO:DY:t=fo:rj	!	!LO:DY:t=for	!	!	!LO:DY:a:t=for	!	!	!LO:DY:a:t=f&colon;	!	!	!LO:DY:a:t=for	!	!	!LO:DY:a:t=for	!	!	!LO:DY:t=for	!	!LO:DY:t=for	!	!LO:DY:a:t=for	!	!LO:DY:t=for	!	!LO:DY:a:t=Forte	!	!LO:DY:a:t=Forte	!	!LO:DY:t=for:rj	!	!LO:DY:t=for&colon;	!LO:TX:a:t=Solo:rj	!LO:DY:t=for
2D\	.	.	1d	.	1a	f	(1f#	f	(1dd	f	1D	A-	f	1A	A-	f	1f#	A-	f	1dd	A-	f	1D	1f#	f	1dd	f	1d	f	1dd	f	1D	f	1D	f	1f#	f	1dd	f	1ddd	f
2d\	.	.	.	.	.	.	.	.	.	.	.	.	.	.	.	.	.	.	.	.	.	.	.	.	.	.	.	.	.	.	.	.	.	.	.	.	.	.	.	.	.
2c#\	.	.	2A/	.	2a\	.	2cc#\)	.	2ee\)	.	2C#/	-gnuſ	.	2c#/	-gnus	.	2a\	-gnus	.	2ee\	-gnus	.	2AA/	2a/	.	2ee\	.	2a/	.	2ee\	.	2C#/	.	2C#/	.	2cc#\	.	2ee\	.	2eee\	.
=41	=41	=41	=41	=41	=41	=41	=41	=41	=41	=41	=41	=41	=41	=41	=41	=41	=41	=41	=41	=41	=41	=41	=41	=41	=41	=41	=41	=41	=41	=41	=41	=41	=41	=41	=41	=41	=41	=41	=41	=41	=41
!	!	!	!	!	!	!	!	!	!	!	!	!	!	!	!	!	!	!	!	!	!	!	!	!	!	!	!	!LO:LB:g=original	!	!	!	!	!	!	!	!	!	!	!	!	!
2D/	.	.	2D/	.	2a\	.	2dd\	.	2ff#'\	.	2D/	de-	.	2d\	De-	.	2a\	de-	.	2ff#\	de-	.	2D/	2dd\	.	2ff#\	.	2dd\	.	2ff#\	.	2D\	.	2D\	.	2dd\	.	2ff#\	.	2fff#\	.
!	!	!	!	!	!	!	!	!	!	!	!	!	!	!	!	!	!	!	!	!	!	!	!	!	!	!	!	!	!	!	!	!LO:N:vis=2	!	!	!	!	!	!	!	!	!
2BB/	.	.	2A/	.	2a\	.	2cc#\	.	2ee'\	.	2A\	-i	.	2c#\	-i	.	2a\	-i	.	2ee\	-i	.	2AA/	2a/	.	2ee\	.	2a/	.	2ee\	.	4C#/L	.	2AA/	.	2cc#\	.	2ee\	.	2bb\	.
!	!	!	!	!	!	!	!	!	!	!	!	!	!	!	!	!	!	!	!	!	!	!	!	!	!	!	!	!	!	!	!	!LO:N:vis=2	!	!	!	!	!	!	!	!	!
.	.	.	.	.	.	.	.	.	.	.	.	.	.	.	.	.	.	.	.	.	.	.	.	.	.	.	.	.	.	.	.	4AA/J	.	.	.	.	.	.	.	.	.
!	!	!	!	!	!	!	!	!LO:DY:t=pia	!	!	!	!	!	!	!	!	!	!	!	!	!	!	!	!	!	!	!	!	!	!	!	!	!	!	!	!	!	!	!	!	!
2r	.	.	2r	.	2r	.	(4cc#\	p	4r	.	2r	.	.	2r	.	.	2r	.	.	2r	.	.	2r	2r	.	2r	.	2r	.	2r	.	2r	.	2r	.	2r	.	2r	.	2r	.
!	!	!	!	!	!	!	!	!	!	!LO:DY:t=p&colon;	!	!	!	!	!	!	!	!	!	!	!	!	!	!	!	!	!	!	!	!	!	!	!	!	!	!	!	!	!	!	!
.	.	.	.	.	.	.	4dd\)	.	(8ee\L	p	.	.	.	.	.	.	.	.	.	.	.	.	.	.	.	.	.	.	.	.	.	.	.	.	.	.	.	.	.	.	.
.	.	.	.	.	.	.	.	.	8ff#\J)	.	.	.	.	.	.	.	.	.	.	.	.	.	.	.	.	.	.	.	.	.	.	.	.	.	.	.	.	.	.	.	.
=42	=42	=42	=42	=42	=42	=42	=42	=42	=42	=42	=42	=42	=42	=42	=42	=42	=42	=42	=42	=42	=42	=42	=42	=42	=42	=42	=42	=42	=42	=42	=42	=42	=42	=42	=42	=42	=42	=42	=42	=42	=42
!	!	!	!LO:TX:a:t=1	!	!LO:TX:a:t=1	!	!	!	!	!	!LO:TX:a:t=1.	!	!	!LO:TX:a:t=1.	!	!	!LO:TX:a:t=1.	!	!	!LO:TX:a:t=1.	!	!	!	!	!	!	!	!	!	!	!	!	!	!LO:LB:g=original	!	!LO:TX:a:t=1	!	!LO:TX:a:t=1	!	!LO:TX:a:t=1	!
1.r	.	.	1.r	.	1.r	.	(4ee'\	.	(4gg~\	.	1.r	.	.	1.r	.	.	1.r	.	.	1.r	.	.	1.r	1.r	.	1.r	.	1.r	.	1.r	.	1.r	.	1.r	.	1.r	.	1.r	.	1.r	.
.	.	.	.	.	.	.	4dd'\	.	4ff#~\	.	.	.	.	.	.	.	.	.	.	.	.	.	.	.	.	.	.	.	.	.	.	.	.	.	.	.	.	.	.	.	.
.	.	.	.	.	.	.	4cc#'\	.	4ee~\	.	.	.	.	.	.	.	.	.	.	.	.	.	.	.	.	.	.	.	.	.	.	.	.	.	.	.	.	.	.	.	.
.	.	.	.	.	.	.	4b'\	.	4dd~\	.	.	.	.	.	.	.	.	.	.	.	.	.	.	.	.	.	.	.	.	.	.	.	.	.	.	.	.	.	.	.	.
.	.	.	.	.	.	.	4a'\	.	4cc#~\	.	.	.	.	.	.	.	.	.	.	.	.	.	.	.	.	.	.	.	.	.	.	.	.	.	.	.	.	.	.	.	.
.	.	.	.	.	.	.	4g'\)	.	4b~\)	.	.	.	.	.	.	.	.	.	.	.	.	.	.	.	.	.	.	.	.	.	.	.	.	.	.	.	.	.	.	.	.
=43	=43	=43	=43	=43	=43	=43	=43	=43	=43	=43	=43	=43	=43	=43	=43	=43	=43	=43	=43	=43	=43	=43	=43	=43	=43	=43	=43	=43	=43	=43	=43	=43	=43	=43	=43	=43	=43	=43	=43	=43	=43
!	!	!	!	!	!	!	!	!LO:DY:t=for	!	!LO:DY:t=for	!	!	!	!	!	!	!	!	!	!	!	!	!	!	!	!	!	!	!	!	!	!	!	!	!	!	!	!	!	!	!
2AA/	.	.	2A/	.	2a\	.	2f#/	f	2a/	f	2C#/	qui	.	2f#\	qui	.	2a\	qui	.	2a\	qui	.	1AA	2ff#\	.	2aa\	.	2f#/	.	2dd\	.	2AA/	.	2AA/	.	2a/	.	2dd\	.	2aa\	.
2C#/	.	.	2c#\	.	4a\	.	2e/	.	2g/	.	2AA/	tol-	.	2e\	tol-	.	2g\	tol-	.	2cc#\	tol-	.	.	2ee\	.	2gg\	.	2a/	.	2ee\	.	2C#/	.	2C#/	.	2cc#\	.	2ee\	.	2eee\	.
.	.	.	.	.	4r	.	.	.	.	.	.	.	.	.	.	.	.	.	.	.	.	.	.	.	.	.	.	.	.	.	.	.	.	.	.	.	.	.	.	.	.
2D\	.	.	4d\	.	2r	.	4d/	.	4f#/	.	4D/	-lis	.	2d\	-lis	.	4f#\	-lis	.	4dd\	-lis	.	4D\	4dd\	.	4ff#\	.	2dd\	.	2ff#\	.	2D/	.	2D/	.	2dd\	.	2ff#\	.	4ddd\	.
!	!	!	!	!	!	!	!	!LO:DY:t=pia.	!	!LO:DY:t=p&colon;	!	!	!	!	!	!	!	!	!	!	!	!	!	!	!	!	!	!	!	!	!	!	!	!	!	!	!	!	!	!	!
.	.	.	4r	.	.	.	(8cc#\L	p	8ee\L	p	4r	.	.	.	.	.	4r	.	.	4r	.	.	4r	4r	.	4r	.	.	.	.	.	.	.	.	.	.	.	.	.	4r	.
.	.	.	.	.	.	.	8ee\J)	.	8ff#\J	.	.	.	.	.	.	.	.	.	.	.	.	.	.	.	.	.	.	.	.	.	.	.	.	.	.	.	.	.	.	.	.
=44	=44	=44	=44	=44	=44	=44	=44	=44	=44	=44	=44	=44	=44	=44	=44	=44	=44	=44	=44	=44	=44	=44	=44	=44	=44	=44	=44	=44	=44	=44	=44	=44	=44	=44	=44	=44	=44	=44	=44	=44	=44
!	!	!	!LO:TX:a:t=1	!	!LO:TX:a:t=1	!	!	!	!	!	!LO:TX:a:t=1.	!	!	!LO:TX:a:t=1.	!	!	!LO:TX:a:t=1.	!	!	!LO:TX:t=P:problem:takt dopisany ołówkiem	!	!	!	!	!	!	!	!	!	!	!	!	!	!	!	!LO:TX:a:t=i	!	!LO:TX:a:t=i	!	!LO:TX:a:t=1	!
!	!	!	!	!	!	!	!	!	!LO:PB:g=original	!	!	!	!	!LO:LB:g=original	!	!	!	!	!	!	!	!	!	!	!	!	!	!	!	!	!	!LO:LB:g=original	!	!	!	!	!	!LO:LB:g=original	!	!	!
1.r	.	.	1.r	.	1.r	.	(4ee'\	.	(4gg~\	.	1.r	.	.	1.r	.	.	1.r	.	.	1.r	.	.	1.r	1.r	.	1.r	.	1.r	.	1.r	.	1.r	.	1.r	.	1.r	.	1.r	.	1.r	.
.	.	.	.	.	.	.	4dd'\	.	4ff#~\	.	.	.	.	.	.	.	.	.	.	.	.	.	.	.	.	.	.	.	.	.	.	.	.	.	.	.	.	.	.	.	.
.	.	.	.	.	.	.	4cc#'\	.	4ee~\	.	.	.	.	.	.	.	.	.	.	.	.	.	.	.	.	.	.	.	.	.	.	.	.	.	.	.	.	.	.	.	.
.	.	.	.	.	.	.	4b'\	.	4dd~\	.	.	.	.	.	.	.	.	.	.	.	.	.	.	.	.	.	.	.	.	.	.	.	.	.	.	.	.	.	.	.	.
.	.	.	.	.	.	.	4a'\	.	4cc#~\	.	.	.	.	.	.	.	.	.	.	.	.	.	.	.	.	.	.	.	.	.	.	.	.	.	.	.	.	.	.	.	.
.	.	.	.	.	.	.	4g'\)	.	4b~\)	.	.	.	.	.	.	.	.	.	.	.	.	.	.	.	.	.	.	.	.	.	.	.	.	.	.	.	.	.	.	.	.
=45	=45	=45	=45	=45	=45	=45	=45	=45	=45	=45	=45	=45	=45	=45	=45	=45	=45	=45	=45	=45	=45	=45	=45	=45	=45	=45	=45	=45	=45	=45	=45	=45	=45	=45	=45	=45	=45	=45	=45	=45	=45
!	!	!	!	!LO:DY:a:rj	!	!	!	!LO:DY:t=for:rj	!	!LO:DY:t=for	!	!	!	!	!	!	!	!	!	!	!	!	!	!	!	!	!	!	!	!LO:TX:t=P:problem:brak taktu	!	!	!	!	!	!	!	!	!	!	!
2AA/	.	.	2A/	f	1a	f	2f#/	f	2a/	f	2C#/	pec-	.	2f#\	pec-	.	2a\	pec-	.	2a\	pec-	.	1AA	2ff#\	.	2aa\	.	2f#/	.	1.ryy	.	2AA/	.	2AA/	.	2a/	.	2dd\	.	2aa\	.
2C#/	.	.	2c#/	.	.	.	2e/	.	2g/	.	2AA/	-ca-	.	2e\	-ca-	.	2g\	-ca-	.	2cc#\	-ca-	.	.	2ee\	.	2gg\	.	2a/	.	.	.	2C#/	.	2C#/	.	2cc#\	.	2ee\	.	2ccc#\	.
2D\	.	.	2d/	.	2a\	.	2d/	.	2f#/	.	2D/	-ta	.	2d\	-ta	.	2f#\	-ta	.	2dd\	-ta	.	2D\	2dd\	.	2ff#\	.	2dd\	.	.	.	2D\	.	2D/	.	2dd\	.	2ff#\	.	2ddd\	.
=46	=46	=46	=46	=46	=46	=46	=46	=46	=46	=46	=46	=46	=46	=46	=46	=46	=46	=46	=46	=46	=46	=46	=46	=46	=46	=46	=46	=46	=46	=46	=46	=46	=46	=46	=46	=46	=46	=46	=46	=46	=46
!	!	!	!	!	!	!	!	!	!	!	!	!	!	!	!	!	!	!	!	!	!	!	!	!	!	!	!	!	!	!	!	!	!	!	!	!	!	!	!	!	!
4G\	6 3	.	4g\	.	8B/L	.	4d/ 4b	.	8b\L	.	1G	A-	.	1d	A-	.	1g	a-	.	1b	a-	.	2r	2r	.	2r	.	1.d	.	1.dd	.	4GG'/	.	4G'\	.	1.b	.	1.dd	.	(8bb\L	.
.	.	.	.	.	8d/J	.	.	.	8dd\J	.	.	.	.	.	.	.	.	.	.	.	.	.	.	.	.	.	.	.	.	.	.	.	.	.	.	.	.	.	.	8dd\J)	.
!	!	!	!	!	!	!	!	!	!LO:TUP:a:problem:klamra łukowa	!	!	!	!	!	!	!	!	!	!	!	!	!	!	!	!	!	!	!	!	!	!	!	!	!	!	!	!	!	!	!	!
.	.	.	.	.	16qqe/	.	.	.	8qee/	.	.	.	.	.	.	.	.	.	.	.	.	.	.	.	.	.	.	.	.	.	.	.	.	.	.	.	.	.	.	8qee/	.
!	!	!	!	!	!	!	!	!	!	!	!	!	!	!	!	!	!	!	!	!	!	!	!	!	!	!	!	!	!	!	!	!	!	!	!	!	!	!	!	!LO:TUP:a:problem:klamra łukowa	!
4G\	.	.	4g\	.	12d\L	.	4d/ 4b	.	12dd\L	.	.	.	.	.	.	.	.	.	.	.	.	.	.	.	.	.	.	.	.	.	.	4GG'/	.	4G'\	.	.	.	.	.	12dd\L	.
.	.	.	.	.	12c#\	.	.	.	12cc#\	.	.	.	.	.	.	.	.	.	.	.	.	.	.	.	.	.	.	.	.	.	.	.	.	.	.	.	.	.	.	12cc#\	.
.	_ _	.	.	.	12d\J	.	.	.	12dd\J	.	.	.	.	.	.	.	.	.	.	.	.	.	.	.	.	.	.	.	.	.	.	.	.	.	.	.	.	.	.	12dd\J	.
!	!	!	!	!	!	!	!	!	!	!	!	!	!	!	!	!	!	!	!	!	!	!	!	!LO:N:vis=4	!	!	!	!	!	!	!	!	!	!	!	!	!	!	!	!	!
4G\	.	.	4g\	.	8r	.	4d/ 4b	.	8r	.	.	.	.	.	.	.	.	.	.	.	.	.	4.D\	4.d/	.	4.dd\	.	.	.	.	.	4GG'/	.	4G'\	.	.	.	.	.	8r	.
.	.	.	.	.	8g\	.	.	.	8gg\	.	.	.	.	.	.	.	.	.	.	.	.	.	.	.	.	.	.	.	.	.	.	.	.	.	.	.	.	.	.	8gg\	.
!	!	!	!	!	!	!	!	!	!LO:TUP:a:problem:klamra łukowa	!	!	!	!	!	!	!	!	!	!	!	!	!	!	!	!	!	!	!	!	!	!	!	!	!	!	!	!	!	!	!	!
.	.	.	.	.	8qqa/	.	.	.	8qaa/	.	.	.	.	.	.	.	.	.	.	.	.	.	.	.	.	.	.	.	.	.	.	.	.	.	.	.	.	.	.	8qaa/	.
!	!	!	!	!	!LO:TUP:a:problem:klamra łukowa	!	!	!	!	!	!	!	!	!	!	!	!	!	!	!	!	!	!	!	!	!	!	!	!	!	!	!	!	!	!	!	!	!	!	!LO:TUP:a:problem:klamra łukowa	!
4G\	.	.	4g\	.	12g\L	.	4d/ 4b	.	12gg\L	.	.	.	.	.	.	.	.	.	.	.	.	.	.	.	.	.	.	.	.	.	.	4GG'/	.	4G'\	.	.	.	.	.	12gg\L	.
.	.	.	.	.	12f#\	.	.	.	12ff#\	.	.	.	.	.	.	.	.	.	.	.	.	.	.	.	.	.	.	.	.	.	.	.	.	.	.	.	.	.	.	12ff#\	.
.	.	.	.	.	.	.	.	.	.	.	.	.	.	.	.	.	.	.	.	.	.	.	8D\	8d/	.	8dd\	.	.	.	.	.	.	.	.	.	.	.	.	.	.	.
.	.	.	.	.	12g\J	.	.	.	12gg\J	.	.	.	.	.	.	.	.	.	.	.	.	.	.	.	.	.	.	.	.	.	.	.	.	.	.	.	.	.	.	12gg\J	.
4G\	x x	.	4g\	.	8b\L	.	4d/ 4b	.	(8bb\L	.	2G\	-gnuſ	.	2d\	-gnus	.	2g\	-gnu[s]	.	2b\	-gnus	.	4D\	4d/	.	4dd\	.	.	.	.	.	4GG'/	.	4G'\	.	.	.	.	.	8bb\L	.
.	.	.	.	.	(8g\	.	.	.	8gg\	.	.	.	.	.	.	.	.	.	.	.	.	.	.	.	.	.	.	.	.	.	.	.	.	.	.	.	.	.	.	(8gg\	.
4G\	.	.	4g\	.	8d\	.	4d/ 4b	.	8dd\	.	.	.	.	.	.	.	.	.	.	.	.	.	4r	4r	.	4r	.	.	.	.	.	4GG'/	.	4G'\	.	.	.	.	.	8dd\	.
.	.	.	.	.	8B\J)	.	.	.	8b\J)	.	.	.	.	.	.	.	.	.	.	.	.	.	.	.	.	.	.	.	.	.	.	.	.	.	.	.	.	.	.	8b\J)	.
=47	=47	=47	=47	=47	=47	=47	=47	=47	=47	=47	=47	=47	=47	=47	=47	=47	=47	=47	=47	=47	=47	=47	=47	=47	=47	=47	=47	=47	=47	=47	=47	=47	=47	=47	=47	=47	=47	=47	=47	=47	=47
!	!	!	!	!	!	!	!LO:LB:g=original	!	!	!	!	!	!	!	!	!	!LO:LB:g=original	!	!	!	!	!	!	!	!	!	!	!	!	!	!	!	!	!	!	!	!	!	!	!LO:LB:g=original	!
4F#\	x 6	.	4f#\	.	8A/L	.	4d/ 4a	.	8a\L	.	2F#\	de-	.	2d\	De-	.	2f#\	de-	.	2a\	de-	.	2r	2r	.	2r	.	1.f#	.	1.dd	.	4FF#'/	.	4F#'\	.	1.a	.	1.dd	.	(8a\L	.
.	.	.	.	.	8d/J	.	.	.	8dd\J	.	.	.	.	.	.	.	.	.	.	.	.	.	.	.	.	.	.	.	.	.	.	.	.	.	.	.	.	.	.	8dd\J)	.
!	!	!	!	!	!	!	!	!	!LO:TUP:a:problem:klamra łukowa	!	!	!	!	!	!	!	!	!	!	!	!	!	!	!	!	!	!	!	!	!	!	!	!	!	!	!	!	!	!	!	!
.	.	.	.	.	16qqe/	.	.	.	8qee/	.	.	.	.	.	.	.	.	.	.	.	.	.	.	.	.	.	.	.	.	.	.	.	.	.	.	.	.	.	.	8qee/	.
!	!	!	!	!	!	!	!	!	!	!	!	!	!	!	!	!	!	!	!	!	!	!	!	!	!	!	!	!	!	!	!	!	!	!	!	!	!	!	!	!LO:TUP:a:problem:klamra łukowa	!
4F#\	x _	.	4f#\	.	12d\L	.	4d/ 4a	.	12dd\L	.	.	.	.	.	.	.	.	.	.	.	.	.	.	.	.	.	.	.	.	.	.	4FF#'/	.	4F#'\	.	.	.	.	.	12dd\L	.
.	.	.	.	.	12c#\	.	.	.	12cc#\	.	.	.	.	.	.	.	.	.	.	.	.	.	.	.	.	.	.	.	.	.	.	.	.	.	.	.	.	.	.	12cc#\	.
.	.	.	.	.	12d\J	.	.	.	12dd\J	.	.	.	.	.	.	.	.	.	.	.	.	.	.	.	.	.	.	.	.	.	.	.	.	.	.	.	.	.	.	12dd\J	.
!	!	!	!	!	!LO:LB:g=original	!	!	!	!	!	!	!	!	!	!	!	!	!	!	!LO:LB:g=original	!	!	!	!	!	!	!	!	!	!	!	!	!	!	!	!	!	!	!	!	!
4F#\	.	.	4f#\	.	8r	.	4d/ 4a	.	8r	.	2F#\	-i	.	2d\	-i	.	2f#\	-i	.	2a\	-i	.	4.D\	4.f#/	.	4.dd\	.	.	.	.	.	4FF#'/	.	4F#'\	.	.	.	.	.	8r	.
.	.	.	.	.	8f#\	.	.	.	8ff#\	.	.	.	.	.	.	.	.	.	.	.	.	.	.	.	.	.	.	.	.	.	.	.	.	.	.	.	.	.	.	8ff#\'	.
!	!	!	!	!	!	!	!	!	!LO:TUP:a:problem:klamra łukowa	!	!	!	!	!	!	!	!	!	!	!	!	!	!	!	!	!	!	!	!	!	!	!	!	!	!	!	!	!	!	!	!
.	.	.	.	.	16qqg/	.	.	.	8qgg/	.	.	.	.	.	.	.	.	.	.	.	.	.	.	.	.	.	.	.	.	.	.	.	.	.	.	.	.	.	.	8qgg/	.
!	!	!	!	!	!	!	!	!	!	!	!	!	!	!	!	!	!	!	!	!	!	!	!	!	!	!	!	!	!	!	!	!	!	!	!	!	!	!	!	!LO:TUP:a:problem:klamra łukowa	!
4F#\	.	.	4f#\	.	12f#\L	.	4d/ 4a	.	12ff#\L	.	.	.	.	.	.	.	.	.	.	.	.	.	.	.	.	.	.	.	.	.	.	4FF#'/	.	4F#'\	.	.	.	.	.	12ff#\L	.
.	.	.	.	.	12e\	.	.	.	12ee\	.	.	.	.	.	.	.	.	.	.	.	.	.	.	.	.	.	.	.	.	.	.	.	.	.	.	.	.	.	.	12ee\	.
.	.	.	.	.	.	.	.	.	.	.	.	.	.	.	.	.	.	.	.	.	.	.	8D\	8f#/	.	8dd\	.	.	.	.	.	.	.	.	.	.	.	.	.	.	.
.	.	.	.	.	12f#\J	.	.	.	12ff#\J	.	.	.	.	.	.	.	.	.	.	.	.	.	.	.	.	.	.	.	.	.	.	.	.	.	.	.	.	.	.	12ff#\J	.
4F#\	.	.	4f#\	.	8a\L	.	4d/ 4a	.	(8aa\L	.	2F#\	qui	.	2d\	qui	.	2f#\	qui	.	2a\	qui	.	4D\	4f#/	.	4dd\	.	.	.	.	.	4FF#'/	.	4F#'\	.	.	.	.	.	8aa\L	.
.	x x	.	.	.	(8f#\	.	.	.	8ff#\	.	.	.	.	.	.	.	.	.	.	.	.	.	.	.	.	.	.	.	.	.	.	.	.	.	.	.	.	.	.	8ff#\	.
4F#\	.	.	4f#\	.	8d\	.	4d/ 4a	.	8dd\	.	.	.	.	.	.	.	.	.	.	.	.	.	4r	4r	.	4r	.	.	.	.	.	4FF#'/	.	4F#'\	.	.	.	.	.	8dd\	.
.	.	.	.	.	8A\J)	.	.	.	8a\J)	.	.	.	.	.	.	.	.	.	.	.	.	.	.	.	.	.	.	.	.	.	.	.	.	.	.	.	.	.	.	8a\J	.
=48	=48	=48	=48	=48	=48	=48	=48	=48	=48	=48	=48	=48	=48	=48	=48	=48	=48	=48	=48	=48	=48	=48	=48	=48	=48	=48	=48	=48	=48	=48	=48	=48	=48	=48	=48	=48	=48	=48	=48	=48	=48
*	*	*	*	*	*	*	*^	*	*	*	*	*	*	*	*	*	*	*	*	*	*	*	*	*	*	*	*	*	*	*	*	*	*	*	*	*	*	*	*	*	*
!	!	!	!LO:LB:g=original	!	!LO:TX:t=P:problem:mixed beam	!	!	!	!	!LO:LB:g=original	!	!	!	!	!	!	!	!	!	!	!	!	!	!LO:LB:g=original	!LO:LB:g=original	!	!LO:LB:g=original	!	!	!	!	!	!	!	!	!	!	!	!	!	!	!
4E\	x 6	.	4c#/	.	8G/L	.	4a/	4g\	.	(8g\L	.	2E\	tol-	.	2c#\	tol-	.	2e\	tol-	.	2g/	tol-	.	2r	2r	.	2r	.	1.a	.	1.ee	.	4EE'/	.	4E\	.	1.g	.	1.cc#	.	(8g\L	.
.	.	.	.	.	8e\J	.	.	.	.	8cc#\J)	.	.	.	.	.	.	.	.	.	.	.	.	.	.	.	.	.	.	.	.	.	.	.	.	.	.	.	.	.	.	8cc#\J)	.
!	!	!	!	!	!	!	!	!	!	!LO:TUP:a:problem:klamra łukowa	!	!	!	!	!	!	!	!	!	!	!	!	!	!	!	!	!	!	!	!	!	!	!	!	!	!	!	!	!	!	!	!
.	.	.	.	.	16qqd/	.	.	.	.	8qdd/	.	.	.	.	.	.	.	.	.	.	.	.	.	.	.	.	.	.	.	.	.	.	.	.	.	.	.	.	.	.	8qdd/	.
!	!	!	!	!	!	!	!	!	!	!	!	!	!	!	!	!	!	!	!	!	!	!	!	!	!	!	!	!	!	!	!	!	!	!	!	!	!	!	!	!	!LO:TUP:a:problem:klamra łukowa	!
4E\	x _	.	4c#/	.	12c#\L	.	4a/	4g\	.	12cc#\L	.	.	.	.	.	.	.	.	.	.	.	.	.	.	.	.	.	.	.	.	.	.	4EE'/	.	4E'\	.	.	.	.	.	12cc#\L	.
.	.	.	.	.	12B\	.	.	.	.	12b\	.	.	.	.	.	.	.	.	.	.	.	.	.	.	.	.	.	.	.	.	.	.	.	.	.	.	.	.	.	.	12b\	.
.	.	.	.	.	12c#\J	.	.	.	.	12cc#\J	.	.	.	.	.	.	.	.	.	.	.	.	.	.	.	.	.	.	.	.	.	.	.	.	.	.	.	.	.	.	12cc#\J	.
4E\	.	.	4c#/	.	8r	.	4a/	4g\	.	8r	.	2E\	-liſ	.	2c#\	-lis	.	2e\	-lis	.	2g/	-lis	.	4.AA/	4.a/	.	4.ee\	.	.	.	.	.	4EE'/	.	4E'\	.	.	.	.	.	8r	.
.	.	.	.	.	8e\	.	.	.	.	8ee\	.	.	.	.	.	.	.	.	.	.	.	.	.	.	.	.	.	.	.	.	.	.	.	.	.	.	.	.	.	.	8ee\'	.
!	!	!	!	!	!	!	!	!	!	!LO:TUP:a:problem:klamra łukowa	!	!	!	!	!	!	!	!	!	!	!	!	!	!	!	!	!	!	!	!	!	!	!	!	!	!	!	!	!	!	!	!
.	.	.	.	.	16qqf#/	.	.	.	.	8qff#/	.	.	.	.	.	.	.	.	.	.	.	.	.	.	.	.	.	.	.	.	.	.	.	.	.	.	.	.	.	.	8qff#/	.
!	!	!	!	!	!	!	!	!	!	!	!	!	!	!	!	!	!	!	!	!	!	!	!	!	!	!	!	!	!	!	!	!	!	!	!	!	!	!	!	!	!LO:TUP:a:problem:klamra łukowa	!
4E\	.	.	4c#/	.	12e\L	.	4a/	4g\	.	12ee\L	.	.	.	.	.	.	.	.	.	.	.	.	.	.	.	.	.	.	.	.	.	.	4EE'/	.	4E'\	.	.	.	.	.	12ee\L	.
.	.	.	.	.	12d#X\	.	.	.	.	12dd#X\	.	.	.	.	.	.	.	.	.	.	.	.	.	.	.	.	.	.	.	.	.	.	.	.	.	.	.	.	.	.	12dd#X\	.
.	.	.	.	.	.	.	.	.	.	.	.	.	.	.	.	.	.	.	.	.	.	.	.	8AA/	8a/	.	8ee\	.	.	.	.	.	.	.	.	.	.	.	.	.	.	.
.	.	.	.	.	12e\J	.	.	.	.	12ee\J	.	.	.	.	.	.	.	.	.	.	.	.	.	.	.	.	.	.	.	.	.	.	.	.	.	.	.	.	.	.	12ee\J	.
4E\	.	.	4c#/	.	8g\L	.	4a/	4g\	.	8gg\L	.	2E\	pec-	.	2c#\	pec-	.	2e\	pec-	.	2g/	pec-	.	4AA/	4a/	.	4ee\	.	.	.	.	.	4EE'/	.	4E'\	.	.	.	.	.	8gg\L	.
.	.	.	.	.	((8e\	.	.	.	.	8ee\	.	.	.	.	.	.	.	.	.	.	.	.	.	.	.	.	.	.	.	.	.	.	.	.	.	.	.	.	.	.	8ee\	.
4E\	x x	.	4c#/	.	8c#\)	.	4a/	4g\	.	8cc#\	.	.	.	.	.	.	.	.	.	.	.	.	.	4r	4r	.	4r	.	.	.	.	.	4EE'/	.	4E'\	.	.	.	.	.	8cc#\	.
.	.	.	.	.	8A\J)	.	.	.	.	8g\J	.	.	.	.	.	.	.	.	.	.	.	.	.	.	.	.	.	.	.	.	.	.	.	.	.	.	.	.	.	.	8g\J	.
=49	=49	=49	=49	=49	=49	=49	=49	=49	=49	=49	=49	=49	=49	=49	=49	=49	=49	=49	=49	=49	=49	=49	=49	=49	=49	=49	=49	=49	=49	=49	=49	=49	=49	=49	=49	=49	=49	=49	=49	=49	=49	=49
!LO:LB:g=original	!	!	!	!	!	!	!	!	!	!	!	!	!	!	!	!	!	!	!	!	!	!	!	!	!	!	!	!	!	!	!	!	!	!	!	!	!	!	!	!	!	!
4r	.	.	4r	.	4r	.	8a/	8f#\	.	8f#/	.	4r	.	.	4r	.	.	1d	-ca-	.	2f#/	-ca-	.	2D\	2f#/	.	2dd\	.	2dd\	.	2ff#\	.	4r	.	4r	.	4f#/	.	4dd\	.	4f#/	.
.	.	.	.	.	.	.	4dd\	8ryy	.	4ff#\	.	.	.	.	.	.	.	.	.	.	.	.	.	.	.	.	.	.	.	.	.	.	.	.	.	.	.	.	.	.	.	.
4D/	5 3	.	4d/	.	4d\	.	.	4ryy	.	.	.	4D/	-ca-	.	(4d\	-ca-	.	.	.	.	.	.	.	.	.	.	.	.	.	.	.	.	4D/	.	4D/	.	2dd\	.	2ff#\	.	2fff#\	.
.	.	.	.	.	.	.	4dd\	.	.	4ff#\	.	.	.	.	.	.	.	.	.	.	.	.	.	.	.	.	.	.	.	.	.	.	.	.	.	.	.	.	.	.	.	.
4C#/	.	.	4c#/	.	4c#\	.	.	2ryy	.	.	.	4C#/	.	.	4c#\	.	.	.	.	.	1dd	-ta	.	2r	2r	.	2r	.	2r	.	2r	.	4C#/	.	(4C#/	.	.	.	.	.	.	.
.	.	.	.	.	.	.	4dd\	.	.	4ff#\	.	.	.	.	.	.	.	.	.	.	.	.	.	.	.	.	.	.	.	.	.	.	.	.	.	.	.	.	.	.	.	.
4D/	.	.	4d/	.	4d\	.	.	.	.	.	.	4D/	.	.	4d\)	.	.	.	.	.	.	.	.	.	.	.	.	.	.	.	.	.	4D/	.	4D/)	.	2dd\	.	2ff#\	.	2fff#\	.
.	.	.	.	.	.	.	4dd\	.	.	4ff#\	.	.	.	.	.	.	.	.	.	.	.	.	.	.	.	.	.	.	.	.	.	.	.	.	.	.	.	.	.	.	.	.
4B\	_ _	.	4B/	.	4b\	.	.	2ryy	.	.	.	4BB/	-ta	.	(4B\	-ta	.	2f#\	-ta	.	.	.	.	2r	2r	.	2r	.	2r	.	2r	.	4BB/	.	4BB/	.	.	.	.	.	.	.
.	.	.	.	.	.	.	4dd\	.	.	4ff#\	.	.	.	.	.	.	.	.	.	.	.	.	.	.	.	.	.	.	.	.	.	.	.	.	.	.	.	.	.	.	.	.
4A\	x x	.	4A/	.	4a\	.	.	.	.	.	.	4AA/	.	.	4A\)	.	.	.	.	.	.	.	.	.	.	.	.	.	.	.	.	.	4AA/	.	4AA/	.	4dd\	.	4ff#\	.	4fff#\	.
.	.	.	.	.	.	.	8dd\	.	.	8ff#\	.	.	.	.	.	.	.	.	.	.	.	.	.	.	.	.	.	.	.	.	.	.	.	.	.	.	.	.	.	.	.	.
*	*	*	*	*	*	*	*v	*v	*	*	*	*	*	*	*	*	*	*	*	*	*	*	*	*	*	*	*	*	*	*	*	*	*	*	*	*	*	*	*	*	*	*
=50	=50	=50	=50	=50	=50	=50	=50	=50	=50	=50	=50	=50	=50	=50	=50	=50	=50	=50	=50	=50	=50	=50	=50	=50	=50	=50	=50	=50	=50	=50	=50	=50	=50	=50	=50	=50	=50	=50	=50	=50	=50
!	!	!	!	!	!	!	!	!	!	!	!LO:N:vis=2.	!	!	!	!	!	!	!	!	!	!	!	!LO:TX:a:t=4	!LO:TX:a:t=4	!	!LO:TX:a:t=4	!	!LO:TX:a:t=2	!	!LO:TX:a:t=2	!	!	!	!	!	!	!	!	!	!	!
2G#X\	.	.	8G#X/	.	8g#X\	.	8dd\	.	8ffn\	.	1.GG#X	mun-	.	1.G#X	mun-	.	1.fn	mun-	.	1.dd	mun-	.	00.r	00.r	.	00.r	.	0.r	.	0.r	.	1.GG#X|	.	4GG#X/	.	1.dd	.	1.ffn	.	1.fffn	.
.	.	.	4G#/	.	4g#\	.	4dd\	.	4ff\	.	.	.	.	.	.	.	.	.	.	.	.	.	.	.	.	.	.	.	.	.	.	.	.	.	.	.	.	.	.	.	.
.	_ _	.	.	.	.	.	.	.	.	.	.	.	.	.	.	.	.	.	.	.	.	.	.	.	.	.	.	.	.	.	.	.	.	2GG#/	.	.	.	.	.	.	.
.	.	.	4G#/	.	4g#\	.	4dd\	.	4ff\	.	.	.	.	.	.	.	.	.	.	.	.	.	.	.	.	.	.	.	.	.	.	.	.	.	.	.	.	.	.	.	.
2G#\	.	.	.	.	.	.	.	.	.	.	.	.	.	.	.	.	.	.	.	.	.	.	.	.	.	.	.	.	.	.	.	.	.	.	.	.	.	.	.	.	.
.	x x	.	4G#/	.	4g#\	.	4dd\	.	4ff\	.	.	.	.	.	.	.	.	.	.	.	.	.	.	.	.	.	.	.	.	.	.	.	.	.	.	.	.	.	.	.	.
.	.	.	.	.	.	.	.	.	.	.	.	.	.	.	.	.	.	.	.	.	.	.	.	.	.	.	.	.	.	.	.	.	.	2GG#/yy	.	.	.	.	.	.	.
.	.	.	4G#/	.	4g#\	.	4dd\	.	4ff\	.	.	.	.	.	.	.	.	.	.	.	.	.	.	.	.	.	.	.	.	.	.	.	.	.	.	.	.	.	.	.	.
2G#\	.	.	.	.	.	.	.	.	.	.	.	.	.	.	.	.	.	.	.	.	.	.	.	.	.	.	.	.	.	.	.	.	.	.	.	.	.	.	.	.	.
.	.	.	4G#/	.	4g#\	.	4dd\	.	4ff\	.	.	.	.	.	.	.	.	.	.	.	.	.	.	.	.	.	.	.	.	.	.	.	.	.	.	.	.	.	.	.	.
.	.	.	.	.	.	.	.	.	.	.	.	.	.	.	.	.	.	.	.	.	.	.	.	.	.	.	.	.	.	.	.	.	.	4GG#/	.	.	.	.	.	.	.
.	.	.	8G#/	.	8g#\	.	8dd\	.	8ff\	.	.	.	.	.	.	.	.	.	.	.	.	.	.	.	.	.	.	.	.	.	.	.	.	.	.	.	.	.	.	.	.
=51	=51	=51	=51	=51	=51	=51	=51	=51	=51	=51	=51	=51	=51	=51	=51	=51	=51	=51	=51	=51	=51	=51	=51	=51	=51	=51	=51	=51	=51	=51	=51	=51	=51	=51	=51	=51	=51	=51	=51	=51	=51
!	!	!	!	!	!	!	!	!	!	!	!	!	!	!	!	!	!	!	!	!	!	!	!	!	!	!	!	!	!	!	!	!	!	!LO:LB:g=original	!	!	!	!	!	!	!
2A\	x #	.	2A/	.	2a\	.	2cc#\	.	2ee\	.	2AA/	-di	.	2A/	-di.	.	2e\	-di	.	2cc#\	-di	.	.	.	.	.	.	.	.	.	.	2AA/	.	2AA/	.	2cc#\	.	2ee\	.	2eee\	.
2r	.	.	2r	.	2r	.	4r	.	4r	.	2r	.	.	2r	.	.	1r	.	.	2r	.	.	.	.	.	.	.	.	.	.	.	2r	.	2r	.	2r	.	2r	.	2r	.
!	!	!	!	!	!	!	!	!LO:DY:t=p.	!	!LO:DY:t=p&colon;	!	!	!	!	!	!	!	!	!	!	!	!	!	!	!	!	!	!	!	!	!	!	!	!	!	!	!	!	!	!	!
.	.	.	.	.	.	.	4cc#\|>	p	4ee\|>	p	.	.	.	.	.	.	.	.	.	.	.	.	.	.	.	.	.	.	.	.	.	.	.	.	.	.	.	.	.	.	.
2r	.	.	2r	.	2r	.	(4dd\	.	(4ffn\	.	2r	.	.	2r	.	.	.	.	.	2r	.	.	.	.	.	.	.	.	.	.	.	2r	.	2r	.	2r	.	2r	.	2r	.
.	.	.	.	.	.	.	4b\)	.	4dd\)	.	.	.	.	.	.	.	.	.	.	.	.	.	.	.	.	.	.	.	.	.	.	.	.	.	.	.	.	.	.	.	.
=52	=52	=52	=52	=52	=52	=52	=52	=52	=52	=52	=52	=52	=52	=52	=52	=52	=52	=52	=52	=52	=52	=52	=52	=52	=52	=52	=52	=52	=52	=52	=52	=52	=52	=52	=52	=52	=52	=52	=52	=52	=52
!LO:TX:a:t=Pedal	!	!	!	!	!	!	!	!	!	!	!LO:TX:a:t=2.	!	!	!LO:TX:a:t=2.	!	!	!LO:TX:a:t=2.	!	!	!LO:TX:a:t=2.	!	!	!	!	!	!	!	!	!	!	!	!	!	!	!	!	!	!	!	!	!
2r	.	.	2r	.	2r	.	2a/	.	2cc#\	.	0.r	.	.	0.r	.	.	0.r	.	.	0.r	.	.	.	.	.	.	.	2r	.	2r	.	2r	.	2r	.	2r	.	2r	pp	2r	.
!	!	!	!	!LO:DY:t=pianiſ.	!	!	!	!LO:DY:t=pp.:rj	!	!LO:DY:t=pp.	!	!	!	!	!	!	!	!	!	!	!	!	!	!	!	!	!	!	!LO:DY:a	!	!LO:DY:t=p&colon;p&colon;	!	!LO:DY:a	!	!LO:DY:a:t=Pianiſ&colon;:rj	!	!LO:DY:rj	!	!	!	!LO:DY:t=pp.
2AA/	.	.	2A/	pp	2e\	pp	2c#/	pp	2a/	pp	.	.	.	.	.	.	.	.	.	.	.	.	.	.	.	.	.	2A/	pp	2a/	pp	2C#/	pp	2E\	pp	2a/	pp	2cc#\	.	2aa\	pp
!	!	!	!	!	!	!	!	!	!	!	!	!	!	!	!	!	!	!	!	!	!	!	!	!	!	!	!	!	!	!	!	!LO:LB:g=original	!	!	!	!	!	!	!	!	!
2AA/	.	.	2A/	.	2e\	.	2c#/	.	2a/	.	.	.	.	.	.	.	.	.	.	.	.	.	.	.	.	.	.	2A/	.	2a/	.	2C#/	.	2E\	.	2a/	.	2cc#\	.	2aa\	.
=53	=53	=53	=53	=53	=53	=53	=53	=53	=53	=53	=53	=53	=53	=53	=53	=53	=53	=53	=53	=53	=53	=53	=53	=53	=53	=53	=53	=53	=53	=53	=53	=53	=53	=53	=53	=53	=53	=53	=53	=53	=53
!	!	!	!	!	!	!	!	!	!	!	!	!	!	!	!	!	!	!	!	!	!	!	!	!	!	!	!	!	!	!	!	!	!	!	!	!	!	!	!	!	!
1AA	.	.	1A	.	1e	.	1c#	.	1a	.	.	.	.	.	.	.	.	.	.	.	.	.	.	.	.	.	.	2A/	.	2a/	.	1C#	.	1E	.	1.ryy	.	1.cc#	.	1aa	.
.	.	.	.	.	.	.	.	.	.	.	.	.	.	.	.	.	.	.	.	.	.	.	.	.	.	.	.	1r	.	2r	.	.	.	.	.	.	.	.	.	.	.
2r	.	.	2r	.	2r	.	2r	.	2r	.	.	.	.	.	.	.	.	.	.	.	.	.	.	.	.	.	.	.	.	2r	.	2r	.	2r	.	.	.	.	.	2r	.
!	!	!	!	!	!	!	!	!	!	!	!	!	!	!	!	!	!	!	!	!	!	!	!	!	!	!LO:TX:b:t=Verte Dona	!	!	!	!	!	!	!	!	!	!	!	!	!	!	!
==	==	==	==	==	==	==	==	==	==	==	==;;	==	==	==	==	==	==	==	==	==	==	==	==	==	==	==	==	==	==	==	==	==	==	==;	==	==	==	==	==	==	==
*-	*-	*-	*-	*-	*-	*-	*-	*-	*-	*-	*-	*-	*-	*-	*-	*-	*-	*-	*-	*-	*-	*-	*-	*-	*-	*-	*-	*-	*-	*-	*-	*-	*-	*-	*-	*-	*-	*-	*-	*-	*-
!!!system-decoration: [(g1)][(g2)](s10)[(g3)][(g4)](s19)
!!!RDF**kern: | = vertical stroke
!!!RDF**kern: > = above
!!!RDF**kern: < = below
!!!ENC: Berenika Jozajtis
!!!END: 2020-10-26
!!!ENC: Krzysztof Stępień
!!!END: 2022-04-05
!!!YEC: Copyright 2022 Narodowy Instytut Fryderyka Chopina (https://polishscores.org)
!!!YEM: License CC-BY-4.0 (https://creativecommons.org/licenses/by/4.0)
